neemoh/ATAR/ /home/charm/development/ros_ws/build/qt_teleop-vision/devel/lib/teleop_vision/ohoh.txt
state_label, psm1_pose.position.x, psm1_pose.position.y, psm1_pose.position.z, psm1_pose.orientation.x , psm1_pose.orientation.y, psm1_pose.orientation.z , psm1_pose.orientation.w, psm2_pose.position.x, psm2_pose.position.y , psm2_pose.position.z, psm2_pose.orientation.x , psm2_pose.orientation.y, psm2_pose.orientation.z , psm2_pose.orientation.w,psm1_joint_state.position[0], psm1_joint_state.position[1], psm1_joint_state.position[2], psm1_joint_state.position[3], psm1_joint_state.position[4], psm1_joint_state.position[5], psm1_joint_state.position[6], psm1_joint_state.velocity[0], psm1_joint_state.velocity[1], psm1_joint_state.velocity[2], psm1_joint_state.velocity[3], psm1_joint_state.velocity[4], psm1_joint_state.velocity[5], psm1_joint_state.velocity[6],psm2_joint_state.position[0], psm2_joint_state.position[1], psm2_joint_state.position[2], psm2_joint_state.position[3], psm2_joint_state.position[4], psm2_joint_state.position[5], psm2_joint_state.position[6], psm2_joint_state.velocity[0], psm2_joint_state.velocity[1], psm2_joint_state.velocity[2], psm2_joint_state.velocity[3], psm2_joint_state.velocity[4], psm2_joint_state.velocity[5], psm2_joint_state.velocity[6]
1, 1, 7.601e-06, 0.00190757, 1, 0, 0.150999, -0.07961, -0.0886439, 0.805329, -0.494422, 0.317106, 0.0802302, 0.0137764, 0.0170886, 0.0331425, 0.772496, -0.512614, 0.374705, 0.00854532, -0.252535, -0.0393892, -0.274677, 0.80213, -0.490504, 0.332408, 0.0741568, 0, 0, 0, 0, 0, 0, 0.097248, 0.0079306, 0.0038948, 0, 0, 0, -0.108875, -0.736313, -0.818038, 0.000860213, -0.00618211, -0.00168367, 1, 0, 0.002, 0.04, 10, 1000, 4, 0.03
1, 1, 7.601e-06, 0.00190757, 1, 0, 0.15114, -0.0796192, -0.0886516, 0.80523, -0.494382, 0.317645, 0.0793251, 0.0137764, 0.0170886, 0.0331425, 0.772496, -0.512614, 0.374705, 0.00854532, -0.251649, -0.039331, -0.274643, 0.801822, -0.490836, 0.333152, 0.0719119, 0, 0, 0, 0, 0, 0, 0.0705391, 0.00593364, 0.00305311, 0, 0, 0, -0.108875, -0.736313, -0.818038, 0.000860213, -0.00618211, -0.00168367, 1, 0, 0.002, 0.04, 10, 1000, 4, 0.03
1, 1, 7.601e-06, 0.00190757, 1, 0, 0.151286, -0.0796393, -0.0886605, 0.805594, -0.49344, 0.31824, 0.0791082, 0.0137764, 0.0170886, 0.0331425, 0.772496, -0.512614, 0.374705, 0.00854532, -0.250718, -0.0392827, -0.274613, 0.802902, -0.489396, 0.332285, 0.0736645, 0, 0, 0, 0, 0, 0, 0.102202, 0.00838704, 0.00456506, 0, 0, 0, -0.108875, -0.736313, -0.818038, 0.000860213, -0.00618211, -0.00168367, 1, 0, 0.002, 0.04, 10, 1000, 4, 0.03
1, 1, 7.601e-06, 0.00190757, 1, 0, 0.151419, -0.07965, -0.0886647, 0.805791, -0.492858, 0.318716, 0.078819, 0.0137764, 0.0170886, 0.0331425, 0.772496, -0.512614, 0.374705, 0.00854532, -0.249931, -0.0392464, -0.274602, 0.803961, -0.487347, 0.332562, 0.0744487, 0, 0, 0, 0, 0, 0, 0.0742596, 0.00253397, 0.000798014, 0, 0, 0, -0.108875, -0.736313, -0.818038, 0.000860213, -0.00618211, -0.00168367, 1, 0, 0.002, 0.04, 10, 1000, 4, 0.03
1, 1, 0.0407289, 0.00164723, 1, 0, 0.151554, -0.0796715, -0.0886665, 0.806417, -0.491333, 0.31936, 0.079324, 0.0137483, 0.0170664, 0.0331378, 0.794099, -0.496977, 0.346729, 0.0469036, -0.249039, -0.0392254, -0.274585, 0.804909, -0.484921, 0.333813, 0.0744404, 0, 0, 0, 0, 0, 0, 0.0962112, 0.00659215, 0.00362852, 0, 0, 0, -0.108875, -0.736313, -0.818038, 0.000860213, -0.00618211, -0.00168367, 1, 0, 0.002, 0.04, 10, 1000, 4, 0.03
1, 1, 0.0407289, 0.00164723, 1, 0, 0.151694, -0.0796885, -0.0886644, 0.807296, -0.489325, 0.320024, 0.0801161, 0.0137483, 0.0170664, 0.0331378, 0.794099, -0.496977, 0.346729, 0.0469036, -0.248191, -0.0391979, -0.274577, 0.805948, -0.482887, 0.334074, 0.075254, 0, 0, 0, 0, 0, 0, 0.0997695, -0.00389983, -0.00210702, 0, 0, 0, -0.782472, -0.649538, -0.83837, 1.27383e-05, -0.00267274, -0.00193499, 1, 0, 0.002, 0.04, 10, 1000, 4, 0.03
1, 1, 0.0407289, 0.00164723, 1, 0, 0.151845, -0.079687, -0.0886619, 0.808207, -0.487325, 0.320681, 0.0804994, 0.0137483, 0.0170664, 0.0331378, 0.794099, -0.496977, 0.346729, 0.0469036, -0.247445, -0.0391818, -0.274577, 0.807001, -0.480795, 0.334374, 0.0760258, 0, 0, 0, 0, 0, 0, 0.0755143, -0.00806629, -0.00466708, 0, 0, 0, -0.782472, -0.649538, -0.83837, 1.27383e-05, -0.00267274, -0.00193499, 1, 0, 0.002, 0.04, 10, 1000, 4, 0.03
1, 1, 0.0407289, 0.00164723, 1, 0, 0.151995, -0.0796924, -0.0886598, 0.808719, -0.486043, 0.321293, 0.080666, 0.0137483, 0.0170664, 0.0331378, 0.794099, -0.496977, 0.346729, 0.0469036, -0.246667, -0.0391535, -0.27458, 0.806595, -0.481165, 0.334854, 0.0758806, 0, 0, 0, 0, 0, 0, 0.0732919, 0.00331061, -2.045e-05, 0, 0, 0, -0.782472, -0.649538, -0.83837, 1.27383e-05, -0.00267274, -0.00193499, 1, 0, 0.002, 0.04, 10, 1000, 4, 0.03
1, 1, 0.0824328, 0.00133362, 1, 0, 0.152123, -0.0797059, -0.0886552, 0.809142, -0.484934, 0.321699, 0.0814782, 0.0139206, 0.0171586, 0.0331763, 0.783196, -0.532534, 0.313995, 0.0664748, -0.246115, -0.0391324, -0.274581, 0.807705, -0.478905, 0.335272, 0.0765262, 0, 0, 0, 0, 0, 0, 0.0565797, -0.0135838, -0.00766241, 0, 0, 0, -1.01602, -0.517016, -0.799318, 0.00132276, -0.000460829, -0.00590682, 1, 0, 0.002, 0.04, 10, 1000, 4, 0.03
1, 1, 0.0824328, 0.00133362, 1, 0, 0.152314, -0.0797071, -0.0886616, 0.810055, -0.482902, 0.322252, 0.0822811, 0.0139206, 0.0171586, 0.0331763, 0.783196, -0.532534, 0.313995, 0.0664748, -0.245348, -0.0390843, -0.274596, 0.807371, -0.479745, 0.334707, 0.0772573, 0, 0, 0, 0, 0, 0, 0.0494736, 0.00137758, -0.00429951, 0, 0, 0, -1.01602, -0.517016, -0.799318, 0.00132276, -0.000460829, -0.00590682, 1, 0, 0.002, 0.04, 10, 1000, 4, 0.03
1, 1, 0.0824328, 0.00133362, 1, 0, 0.152497, -0.0797064, -0.0886634, 0.810401, -0.482024, 0.322702, 0.0822592, 0.0139206, 0.0171586, 0.0331763, 0.783196, -0.532534, 0.313995, 0.0664748, -0.244749, -0.0390248, -0.274619, 0.807086, -0.480441, 0.334248, 0.0778857, 0, 0, 0, 0, 0, 0, 0.0484099, 0.00496184, -0.00263315, 0, 0, 0, -1.01602, -0.517016, -0.799318, 0.00132276, -0.000460829, -0.00590682, 1, 0, 0.002, 0.04, 10, 1000, 4, 0.03
1, 1, 0.0824328, 0.00133362, 1, 0, 0.152675, -0.0797038, -0.0886642, 0.81034, -0.481944, 0.322981, 0.0822315, 0.0139206, 0.0171586, 0.0331763, 0.783196, -0.532534, 0.313995, 0.0664748, -0.244255, -0.0389512, -0.274647, 0.806801, -0.480454, 0.335003, 0.0775132, 0, 0, 0, 0, 0, 0, 0.0474661, 0.00783062, -0.00278974, 0, 0, 0, -1.01602, -0.517016, -0.799318, 0.00132276, -0.000460829, -0.00590682, 1, 0, 0.002, 0.04, 10, 1000, 4, 0.03
1, 1, 0.120106, 0.00103282, 1, 0, 0.152846, -0.0796989, -0.0886644, 0.810254, -0.481922, 0.323262, 0.0821066, 0.0144383, 0.0173011, 0.033368, 0.79059, -0.532129, 0.297538, 0.0572497, -0.243783, -0.0388493, -0.274684, 0.806636, -0.481477, 0.333603, 0.0789103, 0, 0, 0, 0, 0, 0, 0.0478045, 0.0108894, -0.00377002, 0, 0, 0, -0.977523, -0.408251, -0.591251, 0.00282412, 0.000378161, -0.00575506, 1, 0, 0.002, 0.04, 10, 1000, 4, 0.03
1, 1, 0.120106, 0.00103282, 1, 0, 0.153019, -0.0796937, -0.088663, 0.810081, -0.482086, 0.32343, 0.082189, 0.0144383, 0.0173011, 0.033368, 0.79059, -0.532129, 0.297538, 0.0572497, -0.243416, -0.0387327, -0.274726, 0.806472, -0.481817, 0.333416, 0.0793066, 0, 0, 0, 0, 0, 0, 0.0232447, 0.012802, -0.00819328, 0, 0, 0, -0.977523, -0.408251, -0.591251, 0.00282412, 0.000378161, -0.00575506, 1, 0, 0.002, 0.04, 10, 1000, 4, 0.03
1, 1, 0.120106, 0.00103282, 1, 0, 0.153167, -0.0796883, -0.0886595, 0.809927, -0.482229, 0.323531, 0.0824669, 0.0144383, 0.0173011, 0.033368, 0.79059, -0.532129, 0.297538, 0.0572497, -0.243077, -0.0386048, -0.274773, 0.8063, -0.482166, 0.333228, 0.0797216, 0, 0, 0, 0, 0, 0, 0.0230118, 0.0140151, -0.00763036, 0, 0, 0, -0.977523, -0.408251, -0.591251, 0.00282412, 0.000378161, -0.00575506, 1, 0, 0.002, 0.04, 10, 1000, 4, 0.03
1, 1, 0.155194, 0.000777838, 1, 0, 0.153327, -0.0796744, -0.0886541, 0.809814, -0.482327, 0.323621, 0.0826515, 0.0148812, 0.0175356, 0.0334762, 0.814654, -0.491768, 0.300523, 0.0647228, -0.242814, -0.0384894, -0.274818, 0.806178, -0.482393, 0.333121, 0.0800282, 0, 0, 0, 0, 0, 0, 0.0229321, 0.0142976, -0.00744891, 0, 0, 0, -0.89472, -0.272993, -0.481409, 0.00148777, 0.000851858, -0.00215651, 1, 0, 0.002, 0.04, 10, 1000, 4, 0.03
1, 1, 0.155194, 0.000777838, 1, 0, 0.153467, -0.0796596, -0.0886503, 0.809652, -0.482532, 0.323728, 0.0826216, 0.0148812, 0.0175356, 0.0334762, 0.814654, -0.491768, 0.300523, 0.0647228, -0.242593, -0.0383322, -0.274864, 0.806212, -0.483018, 0.332353, 0.0791063, 0, 0, 0, 0, 0, 0, 0.0179584, 0.0167739, -0.00654949, 0, 0, 0, -0.89472, -0.272993, -0.481409, 0.00148777, 0.000851858, -0.00215651, 1, 0, 0.002, 0.04, 10, 1000, 4, 0.03
1, 1, 0.155194, 0.000777838, 1, 0, 0.153612, -0.0796344, -0.0886457, 0.80947, -0.482904, 0.323707, 0.0823205, 0.0148812, 0.0175356, 0.0334762, 0.814654, -0.491768, 0.300523, 0.0647228, -0.242443, -0.0381541, -0.274922, 0.806144, -0.483069, 0.332392, 0.0793223, 0, 0, 0, 0, 0, 0, 0.0100617, 0.0176384, -0.00616374, 0, 0, 0, -0.89472, -0.272993, -0.481409, 0.00148777, 0.000851858, -0.00215651, 1, 0, 0.002, 0.04, 10, 1000, 4, 0.03
1, 1, 0.155194, 0.000777838, 1, 0, 0.153722, -0.0796077, -0.0886419, 0.809369, -0.483125, 0.323732, 0.0819122, 0.0148812, 0.0175356, 0.0334762, 0.814654, -0.491768, 0.300523, 0.0647228, -0.242342, -0.0379922, -0.274978, 0.806095, -0.483079, 0.332454, 0.0794938, 0, 0, 0, 0, 0, 0, 0.00980152, 0.0187235, -0.00560976, 0, 0, 0, -0.89472, -0.272993, -0.481409, 0.00148777, 0.000851858, -0.00215651, 1, 0, 0.002, 0.04, 10, 1000, 4, 0.03
1, 1, 0.189436, 0.000546049, 1, 0, 0.153855, -0.0795755, -0.0886348, 0.809282, -0.483287, 0.32373, 0.0818293, 0.0153359, 0.0176227, 0.0335805, 0.810885, -0.511811, 0.271164, 0.0835784, -0.242265, -0.0377855, -0.275045, 0.806061, -0.483025, 0.332578, 0.0796516, 0, 0, 0, 0, 0, 0, 0.00929182, 0.020405, -0.00473186, 0, 0, 0, -0.698256, -0.338041, -0.386824, 0.00181165, 0.00315473, -0.00419527, 1, 0, 0.002, 0.04, 10, 1000, 4, 0.03
1, 1, 0.189436, 0.000546049, 1, 0, 0.153962, -0.0795485, -0.0886229, 0.809191, -0.483331, 0.323872, 0.0818986, 0.0153359, 0.0176227, 0.0335805, 0.810885, -0.511811, 0.271164, 0.0835784, -0.242221, -0.0375842, -0.275115, 0.80604, -0.482938, 0.332725, 0.0797831, 0, 0, 0, 0, 0, 0, 0.00350972, 0.0196963, -0.00532607, 0, 0, 0, -0.698256, -0.338041, -0.386824, 0.00181165, 0.00315473, -0.00419527, 1, 0, 0.002, 0.04, 10, 1000, 4, 0.03
1, 1, 0.189436, 0.000546049, 1, 0, 0.154047, -0.0795237, -0.0886145, 0.809139, -0.483342, 0.323985, 0.0819056, 0.0153359, 0.0176227, 0.0335805, 0.810885, -0.511811, 0.271164, 0.0835784, -0.242204, -0.0373711, -0.27519, 0.805991, -0.482911, 0.332838, 0.0799722, 0, 0, 0, 0, 0, 0, 0.0006002, 0.0305696, -0.0148844, 0, 0, 0, -0.698256, -0.338041, -0.386824, 0.00181165, 0.00315473, -0.00419527, 1, 0, 0.002, 0.04, 10, 1000, 4, 0.03
1, 1, 0.224624, 0.000441833, 1, 0, 0.154135, -0.0794933, -0.0886084, 0.809165, -0.483218, 0.32412, 0.0818475, 0.0157537, 0.0177973, 0.0336572, 0.813881, -0.512724, 0.262027, 0.0778041, -0.242198, -0.0371434, -0.275279, 0.806024, -0.48331, 0.331929, 0.0809964, 0, 0, 0, 0, 0, 0, -0.000746011, 0.0305601, -0.0150606, 0, 0, 0, -0.458392, -0.33527, -0.329625, 0.00265817, 0.00365703, -0.00404896, 1, 0, 0.002, 0.04, 10, 1000, 4, 0.03
1, 1, 0.224624, 0.000441833, 1, 0, 0.154208, -0.079466, -0.0885992, 0.809073, -0.483237, 0.324257, 0.082097, 0.0157537, 0.0177973, 0.0336572, 0.813881, -0.512724, 0.262027, 0.0778041, -0.242205, -0.0369343, -0.275367, 0.806001, -0.483206, 0.3321, 0.0811379, 0, 0, 0, 0, 0, 0, -0.00130843, 0.0285704, -0.0160441, 0, 0, 0, -0.458392, -0.33527, -0.329625, 0.00265817, 0.00365703, -0.00404896, 1, 0, 0.002, 0.04, 10, 1000, 4, 0.03
1, 1, 0.224624, 0.000441833, 1, 0, 0.154259, -0.0794402, -0.0885944, 0.808945, -0.483372, 0.3243, 0.0824001, 0.0157537, 0.0177973, 0.0336572, 0.813881, -0.512724, 0.262027, 0.0778041, -0.242208, -0.0366921, -0.27547, 0.805939, -0.483176, 0.332238, 0.0813735, 0, 0, 0, 0, 0, 0, -0.00065052, 0.0286722, -0.0158159, 0, 0, 0, -0.458392, -0.33527, -0.329625, 0.00265817, 0.00365703, -0.00404896, 1, 0, 0.002, 0.04, 10, 1000, 4, 0.03
1, 1, 0.224624, 0.000441833, 1, 0, 0.154316, -0.0794028, -0.0885922, 0.808924, -0.483325, 0.324445, 0.0823028, 0.0157537, 0.0177973, 0.0336572, 0.813881, -0.512724, 0.262027, 0.0778041, -0.242199, -0.0364805, -0.275556, 0.806023, -0.483615, 0.331637, 0.0803755, 0, 0, 0, 0, 0, 0, 0.00154104, 0.0193236, -0.00555211, 0, 0, 0, -0.458392, -0.33527, -0.329625, 0.00265817, 0.00365703, -0.00404896, 1, 0, 0.002, 0.04, 10, 1000, 4, 0.03
1, 1, 0.260671, 0.000370461, 1, 0, 0.154363, -0.0793593, -0.0885934, 0.808889, -0.483429, 0.32448, 0.0818987, 0.0160892, 0.0179637, 0.0337085, 0.815426, -0.51318, 0.257179, 0.0747444, -0.242176, -0.0362504, -0.275644, 0.805931, -0.483678, 0.3317, 0.0806587, 0, 0, 0, 0, 0, 0, 0.002595, 0.0309067, -0.0147014, 0, 0, 0, -0.258334, -0.364542, -0.273955, 0.00311055, 0.00410276, -0.00402227, 1, 0, 0.002, 0.04, 10, 1000, 4, 0.03
1, 1, 0.260671, 0.000370461, 1, 0, 0.154405, -0.0793153, -0.0885991, 0.808843, -0.483545, 0.324456, 0.0817653, 0.0160892, 0.0179637, 0.0337085, 0.815426, -0.51318, 0.257179, 0.0747444, -0.24214, -0.0360429, -0.275722, 0.805985, -0.4842, 0.331036, 0.0797132, 0, 0, 0, 0, 0, 0, 0.00553804, 0.0199482, -0.00518484, 0, 0, 0, -0.258334, -0.364542, -0.273955, 0.00311055, 0.00410276, -0.00402227, 1, 0, 0.002, 0.04, 10, 1000, 4, 0.03
1, 1, 0.260671, 0.000370461, 1, 0, 0.154437, -0.0792769, -0.0886047, 0.808725, -0.483835, 0.324368, 0.0815715, 0.0160892, 0.0179637, 0.0337085, 0.815426, -0.51318, 0.257179, 0.0747444, -0.242086, -0.0358565, -0.275788, 0.805938, -0.484187, 0.331127, 0.0798903, 0, 0, 0, 0, 0, 0, 0.00891589, 0.0300696, -0.0150968, 0, 0, 0, -0.258334, -0.364542, -0.273955, 0.00311055, 0.00410276, -0.00402227, 1, 0, 0.002, 0.04, 10, 1000, 4, 0.03
1, 1, 0.260671, 0.000370461, 1, 0, 0.15448, -0.0792211, -0.0886211, 0.808634, -0.484098, 0.324372, 0.0808861, 0.0160892, 0.0179637, 0.0337085, 0.815426, -0.51318, 0.257179, 0.0747444, -0.241967, -0.0356198, -0.275871, 0.806039, -0.48522, 0.329373, 0.079851, 0, 0, 0, 0, 0, 0, 0.0100902, 0.0175774, -0.00617582, 0, 0, 0, -0.258334, -0.364542, -0.273955, 0.00311055, 0.00410276, -0.00402227, 1, 0, 0.002, 0.04, 10, 1000, 4, 0.03
1, 1, 0.300672, 0.000355375, 1, 0, 0.154512, -0.0791707, -0.0886375, 0.808575, -0.484384, 0.324183, 0.0805142, 0.0163319, 0.0181003, 0.0337463, 0.814996, -0.513055, 0.258536, 0.0756002, -0.241852, -0.0354321, -0.275936, 0.806176, -0.486191, 0.327634, 0.0797174, 0, 0, 0, 0, 0, 0, 0.0100759, 0.0175266, -0.00615676, 0, 0, 0, -0.163584, -0.381625, -0.211816, 0.00277265, 0.00415343, -0.00402625, 1, 0, 0.002, 0.04, 10, 1000, 4, 0.03
1, 1, 0.300672, 0.000355375, 1, 0, 0.154542, -0.0791324, -0.0886504, 0.808437, -0.484728, 0.324086, 0.0802262, 0.0163319, 0.0181003, 0.0337463, 0.814996, -0.513055, 0.258536, 0.0756002, -0.241692, -0.0352536, -0.275994, 0.806256, -0.486669, 0.326971, 0.0787093, 0, 0, 0, 0, 0, 0, 0.0100651, 0.0174179, -0.00706602, 0, 0, 0, -0.163584, -0.381625, -0.211816, 0.00277265, 0.00415343, -0.00402625, 1, 0, 0.002, 0.04, 10, 1000, 4, 0.03
1, 1, 0.300672, 0.000355375, 1, 0, 0.154572, -0.0790851, -0.0886659, 0.808109, -0.485558, 0.323789, 0.0797115, 0.0163319, 0.0181003, 0.0337463, 0.814996, -0.513055, 0.258536, 0.0756002, -0.241513, -0.0350965, -0.276031, 0.807766, -0.4848, 0.32603, 0.0786636, 0, 0, 0, 0, 0, 0, 0.0225621, 0.0149582, -0.00236073, 0, 0, 0, -0.163584, -0.381625, -0.211816, 0.00277265, 0.00415343, -0.00402625, 1, 0, 0.002, 0.04, 10, 1000, 4, 0.03
1, 1, 0.300672, 0.000355375, 1, 0, 0.154595, -0.0790389, -0.0886881, 0.808206, -0.485705, 0.323426, 0.079305, 0.0163319, 0.0181003, 0.0337463, 0.814996, -0.513055, 0.258536, 0.0756002, -0.241263, -0.0349606, -0.276046, 0.80768, -0.484953, 0.325962, 0.0788864, 0, 0, 0, 0, 0, 0, 0.0228958, 0.0121704, -0.000872682, 0, 0, 0, -0.163584, -0.381625, -0.211816, 0.00277265, 0.00415343, -0.00402625, 1, 0, 0.002, 0.04, 10, 1000, 4, 0.03
1, 1, 0.34443, 0.000344416, 1, 0, 0.154621, -0.0789929, -0.0887116, 0.808612, -0.4853, 0.323027, 0.0792753, 0.0163319, 0.0181003, 0.0337463, 0.814996, -0.513055, 0.258536, 0.0756002, -0.240953, -0.0348238, -0.276049, 0.808984, -0.482829, 0.325572, 0.0801517, 0, 0, 0, 0, 0, 0, 0.0231721, 0.0110076, -0.000296572, 0, 0, 0, -0.163584, -0.381625, -0.211816, 0.00277265, 0.00415343, -0.00402625, 1, 0, 0.002, 0.04, 10, 1000, 4, 0.03
1, 1, 0.34443, 0.000344416, 1, 0, 0.154649, -0.0789601, -0.088729, 0.808863, -0.485029, 0.322754, 0.0794817, 0.0165178, 0.0181991, 0.0337804, 0.811151, -0.511906, 0.270347, 0.0830575, -0.240592, -0.0346874, -0.27603, 0.80886, -0.483107, 0.325396, 0.080437, 0, 0, 0, 0, 0, 0, 0.022959, 0.0106421, 0.00115451, 0, 0, 0, -0.226211, -0.449108, -0.138706, 0.00128667, 0.00353264, -0.00400472, 1, 0, 0.002, 0.04, 10, 1000, 4, 0.03
1, 1, 0.34443, 0.000344416, 1, 0, 0.154674, -0.0789386, -0.088746, 0.809477, -0.483998, 0.322574, 0.0802417, 0.0165178, 0.0181991, 0.0337804, 0.811151, -0.511906, 0.270347, 0.0830575, -0.240228, -0.0345831, -0.275996, 0.81016, -0.481024, 0.32494, 0.0816739, 0, 0, 0, 0, 0, 0, 0.0437254, 0.0306076, 0.0122627, 0, 0, 0, -0.226211, -0.449108, -0.138706, 0.00128667, 0.00353264, -0.00400472, 1, 0, 0.002, 0.04, 10, 1000, 4, 0.03
1, 1, 0.34443, 0.000344416, 1, 0, 0.154687, -0.0789329, -0.0887548, 0.809883, -0.483249, 0.32252, 0.0808825, 0.0165178, 0.0181991, 0.0337804, 0.811151, -0.511906, 0.270347, 0.0830575, -0.240004, -0.0345248, -0.275965, 0.811505, -0.478823, 0.324552, 0.0827935, 0, 0, 0, 0, 0, 0, 0.0467775, 0.0139531, 0.00444503, 0, 0, 0, -0.226211, -0.449108, -0.138706, 0.00128667, 0.00353264, -0.00400472, 1, 0, 0.002, 0.04, 10, 1000, 4, 0.03
1, 1, 0.383079, 0.000285473, 1, 0, 0.154737, -0.0789115, -0.0887759, 0.811051, -0.481166, 0.322346, 0.0822709, 0.0166228, 0.0184111, 0.0337708, 0.805789, -0.510217, 0.285918, 0.0929171, -0.239376, -0.0343489, -0.275882, 0.812708, -0.476968, 0.323909, 0.0842002, 0, 0, 0, 0, 0, 0, 0.0468487, 0.0150853, 0.0073365, 0, 0, 0, -0.387126, -0.272541, -0.157221, 0.000133018, 0.00236974, -0.00460344, 1, 0, 0.002, 0.04, 10, 1000, 4, 0.03
1, 1, 0.383079, 0.000285473, 1, 0, 0.154764, -0.0789038, -0.0887851, 0.811584, -0.480206, 0.322273, 0.0829113, 0.0166228, 0.0184111, 0.0337708, 0.805789, -0.510217, 0.285918, 0.0929171, -0.239043, -0.0342826, -0.275825, 0.814004, -0.474877, 0.323417, 0.0853828, 0, 0, 0, 0, 0, 0, 0.0466926, 0.0111826, 0.00966143, 0, 0, 0, -0.387126, -0.272541, -0.157221, 0.000133018, 0.00236974, -0.00460344, 1, 0, 0.002, 0.04, 10, 1000, 4, 0.03
1, 1, 0.383079, 0.000285473, 1, 0, 0.154815, -0.07889, -0.0887983, 0.812521, -0.478505, 0.322167, 0.083976, 0.0166228, 0.0184111, 0.0337708, 0.805789, -0.510217, 0.285918, 0.0929171, -0.238454, -0.0341464, -0.27572, 0.81381, -0.475422, 0.323002, 0.0857734, 0, 0, 0, 0, 0, 0, 0.046777, 0.0108283, 0.00831371, 0, 0, 0, -0.387126, -0.272541, -0.157221, 0.000133018, 0.00236974, -0.00460344, 1, 0, 0.002, 0.04, 10, 1000, 4, 0.03
1, 1, 0.383079, 0.000285473, 1, 0, 0.154864, -0.0788789, -0.088811, 0.813472, -0.476825, 0.32196, 0.0851097, 0.0166228, 0.0184111, 0.0337708, 0.805789, -0.510217, 0.285918, 0.0929171, -0.237881, -0.0340055, -0.275634, 0.815004, -0.473579, 0.322327, 0.0871598, 0, 0, 0, 0, 0, 0, 0.0707722, 0.0162366, 0.0110246, 0, 0, 0, -0.387126, -0.272541, -0.157221, 0.000133018, 0.00236974, -0.00460344, 1, 0, 0.002, 0.04, 10, 1000, 4, 0.03
1, 1, 0.421076, 0.000223605, 1, 0, 0.154939, -0.0788646, -0.088819, 0.814172, -0.475558, 0.321825, 0.0860016, 0.0167112, 0.0184942, 0.0337774, 0.803663, -0.509525, 0.291831, 0.0966691, -0.237234, -0.0338466, -0.275528, 0.816191, -0.471751, 0.321625, 0.0885466, 0, 0, 0, 0, 0, 0, 0.0510304, 0.0139366, 0.00876986, 0, 0, 0, -0.682006, -0.228591, -0.176508, -2.83406e-05, 0.00160124, -0.00513687, 1, 0, 0.002, 0.04, 10, 1000, 4, 0.03
1, 1, 0.421076, 0.000223605, 1, 0, 0.155018, -0.0788646, -0.0888215, 0.814925, -0.474091, 0.321731, 0.087324, 0.0167112, 0.0184942, 0.0337774, 0.803663, -0.509525, 0.291831, 0.0966691, -0.236594, -0.0336898, -0.275444, 0.817371, -0.469908, 0.320937, 0.0899454, 0, 0, 0, 0, 0, 0, 0.0465986, 0.0130944, 0.00828462, 0, 0, 0, -0.682006, -0.228591, -0.176508, -2.83406e-05, 0.00160124, -0.00513687, 1, 0, 0.002, 0.04, 10, 1000, 4, 0.03
1, 1, 0.421076, 0.000223605, 1, 0, 0.155113, -0.0788583, -0.0888273, 0.815937, -0.472191, 0.321602, 0.0886253, 0.0167112, 0.0184942, 0.0337774, 0.803663, -0.509525, 0.291831, 0.0966691, -0.235861, -0.0335131, -0.275339, 0.818539, -0.468095, 0.32021, 0.0913572, 0, 0, 0, 0, 0, 0, 0.0471747, 0.0119928, 0.00686605, 0, 0, 0, -0.682006, -0.228591, -0.176508, -2.83406e-05, 0.00160124, -0.00513687, 1, 0, 0.002, 0.04, 10, 1000, 4, 0.03
1, 1, 0.421076, 0.000223605, 1, 0, 0.155206, -0.0788479, -0.0888312, 0.816825, -0.470652, 0.321328, 0.0896235, 0.0167112, 0.0184942, 0.0337774, 0.803663, -0.509525, 0.291831, 0.0966691, -0.23512, -0.0333285, -0.275251, 0.818339, -0.469291, 0.318569, 0.0927456, 0, 0, 0, 0, 0, 0, 0.0717539, 0.016715, 0.00763051, 0, 0, 0, -0.682006, -0.228591, -0.176508, -2.83406e-05, 0.00160124, -0.00513687, 1, 0, 0.002, 0.04, 10, 1000, 4, 0.03
1, 1, 0.457551, 0.000161539, 1, 0, 0.155316, -0.0788336, -0.088822, 0.817473, -0.469515, 0.321074, 0.090581, 0.0168625, 0.018575, 0.0338007, 0.802992, -0.509657, 0.293199, 0.0974083, -0.234437, -0.0331454, -0.275186, 0.819478, -0.467505, 0.317834, 0.0942178, 0, 0, 0, 0, 0, 0, 0.094695, 0.0231419, 0.00908024, 0, 0, 0, -0.989652, -0.208962, -0.166782, 0.000234948, 0.00118193, -0.00559328, 1, 0, 0.002, 0.04, 10, 1000, 4, 0.03
1, 1, 0.457551, 0.000161539, 1, 0, 0.15542, -0.0788325, -0.0888109, 0.818001, -0.468427, 0.320964, 0.0918292, 0.0168625, 0.018575, 0.0338007, 0.802992, -0.509657, 0.293199, 0.0974083, -0.233704, -0.0329487, -0.275113, 0.820512, -0.465323, 0.318155, 0.0949348, 0, 0, 0, 0, 0, 0, 0.0944635, 0.0209723, 0.00802363, 0, 0, 0, -0.989652, -0.208962, -0.166782, 0.000234948, 0.00118193, -0.00559328, 1, 0, 0.002, 0.04, 10, 1000, 4, 0.03
1, 1, 0.457551, 0.000161539, 1, 0, 0.155549, -0.0788194, -0.0887965, 0.818777, -0.466937, 0.320782, 0.0931281, 0.0168625, 0.018575, 0.0338007, 0.802992, -0.509657, 0.293199, 0.0974083, -0.233012, -0.0327671, -0.275038, 0.821623, -0.463592, 0.317362, 0.0964357, 0, 0, 0, 0, 0, 0, 0.0701109, 0.0184703, 0.00777221, 0, 0, 0, -0.989652, -0.208962, -0.166782, 0.000234948, 0.00118193, -0.00559328, 1, 0, 0.002, 0.04, 10, 1000, 4, 0.03
1, 1, 0.457551, 0.000161539, 1, 0, 0.155672, -0.078807, -0.0887799, 0.819583, -0.465408, 0.320593, 0.09434, 0.0168625, 0.018575, 0.0338007, 0.802992, -0.509657, 0.293199, 0.0974083, -0.232304, -0.0325845, -0.274952, 0.822639, -0.461442, 0.317643, 0.097158, 0, 0, 0, 0, 0, 0, 0.0468418, 0.0149092, 0.00626557, 0, 0, 0, -0.989652, -0.208962, -0.166782, 0.000234948, 0.00118193, -0.00559328, 1, 0, 0.002, 0.04, 10, 1000, 4, 0.03
1, 1, 0.493998, 8.93611e-05, 1, 0, 0.155795, -0.0787885, -0.0887609, 0.820243, -0.46418, 0.320395, 0.0953157, 0.0171984, 0.0186379, 0.0338762, 0.819366, -0.488182, 0.2832, 0.100577, -0.231579, -0.0323932, -0.274851, 0.823719, -0.459786, 0.316772, 0.0986892, 0, 0, 0, 0, 0, 0, 0.0706045, 0.0216683, 0.00981042, 0, 0, 0, -1.16958, -0.221696, -0.137589, 0.000377757, 0.00243195, -0.00412098, 1, 0, 0.002, 0.04, 10, 1000, 4, 0.03
1, 1, 0.493998, 8.93611e-05, 1, 0, 0.155934, -0.0787567, -0.0887387, 0.821107, -0.462592, 0.320219, 0.0961852, 0.0171984, 0.0186379, 0.0338762, 0.819366, -0.488182, 0.2832, 0.100577, -0.230955, -0.0322243, -0.274762, 0.823468, -0.460476, 0.316259, 0.0992106, 0, 0, 0, 0, 0, 0, 0.0704571, 0.0215088, 0.0097393, 0, 0, 0, -1.16958, -0.221696, -0.137589, 0.000377757, 0.00243195, -0.00412098, 1, 0, 0.002, 0.04, 10, 1000, 4, 0.03
1, 1, 0.493998, 8.93611e-05, 1, 0, 0.156061, -0.0787322, -0.0887173, 0.821899, -0.461117, 0.320048, 0.0970713, 0.0171984, 0.0186379, 0.0338762, 0.819366, -0.488182, 0.2832, 0.100577, -0.230301, -0.0320205, -0.274667, 0.825929, -0.456286, 0.31515, 0.101615, 0, 0, 0, 0, 0, 0, 0.077192, 0.021376, 0.0108708, 0, 0, 0, -1.16958, -0.221696, -0.137589, 0.000377757, 0.00243195, -0.00412098, 1, 0, 0.002, 0.04, 10, 1000, 4, 0.03
1, 1, 0.493998, 8.93611e-05, 1, 0, 0.156196, -0.0787067, -0.0886953, 0.82268, -0.459663, 0.319846, 0.0980136, 0.0171984, 0.0186379, 0.0338762, 0.819366, -0.488182, 0.2832, 0.100577, -0.229764, -0.0318485, -0.274578, 0.827064, -0.454433, 0.314402, 0.102992, 0, 0, 0, 0, 0, 0, 0.0707344, 0.0204729, 0.0103561, 0, 0, 0, -1.16958, -0.221696, -0.137589, 0.000377757, 0.00243195, -0.00412098, 1, 0, 0.002, 0.04, 10, 1000, 4, 0.03
1, 1, 0.535781, 2.6901e-06, 1, 0, 0.15636, -0.0786719, -0.0886761, 0.823905, -0.457471, 0.319465, 0.0992112, 0.0176089, 0.018689, 0.0339178, 0.823805, -0.48955, 0.270575, 0.0920591, -0.22912, -0.0316321, -0.274467, 0.826843, -0.455054, 0.31393, 0.10346, 0, 0, 0, 0, 0, 0, 0.0466019, 0.0173797, 0.00858003, 0, 0, 0, -1.3476, -0.321643, -0.213752, 0.00192634, 0.00272327, -0.00459476, 1, 0, 0.002, 0.04, 10, 1000, 4, 0.03
1, 1, 0.535781, 2.6901e-06, 1, 0, 0.156496, -0.0786495, -0.0886565, 0.824886, -0.455663, 0.319095, 0.100564, 0.0176089, 0.018689, 0.0339178, 0.823805, -0.48955, 0.270575, 0.0920591, -0.228584, -0.0314461, -0.274371, 0.827999, -0.453134, 0.313221, 0.104785, 0, 0, 0, 0, 0, 0, 0.0693063, 0.0314388, 0.0155985, 0, 0, 0, -1.3476, -0.321643, -0.213752, 0.00192634, 0.00272327, -0.00459476, 1, 0, 0.002, 0.04, 10, 1000, 4, 0.03
1, 1, 0.535781, 2.6901e-06, 1, 0, 0.156642, -0.0786314, -0.0886279, 0.825894, -0.453605, 0.31889, 0.102228, 0.0176089, 0.018689, 0.0339178, 0.823805, -0.48955, 0.270575, 0.0920591, -0.228025, -0.0312341, -0.274263, 0.82915, -0.451213, 0.312502, 0.106111, 0, 0, 0, 0, 0, 0, 0.0481303, 0.0173768, 0.00860374, 0, 0, 0, -1.3476, -0.321643, -0.213752, 0.00192634, 0.00272327, -0.00459476, 1, 0, 0.002, 0.04, 10, 1000, 4, 0.03
1, 1, 0.535781, 2.6901e-06, 1, 0, 0.156781, -0.0786005, -0.088597, 0.826527, -0.452357, 0.318719, 0.103172, 0.0176089, 0.018689, 0.0339178, 0.823805, -0.48955, 0.270575, 0.0920591, -0.227493, -0.0310182, -0.274153, 0.830289, -0.449308, 0.311766, 0.107445, 0, 0, 0, 0, 0, 0, 0.0451008, 0.0284091, 0.0138818, 0, 0, 0, -1.3476, -0.321643, -0.213752, 0.00192634, 0.00272327, -0.00459476, 1, 0, 0.002, 0.04, 10, 1000, 4, 0.03
1, 1, 0.578895, 1.68153e-05, 1, 0, 0.156935, -0.0785579, -0.0885615, 0.827143, -0.45121, 0.318508, 0.103902, 0.0181116, 0.0188475, 0.0339432, 0.824532, -0.500535, 0.244551, 0.099026, -0.227034, -0.0308357, -0.274049, 0.830116, -0.449809, 0.311381, 0.107803, 0, 0, 0, 0, 0, 0, 0.0466373, 0.0166847, 0.00874105, 0, 0, 0, -1.31362, -0.309763, -0.322872, 0.00289699, 0.00446498, -0.00603761, 1, 0, 0.002, 0.04, 10, 1000, 4, 0.03
1, 1, 0.578895, 1.68153e-05, 1, 0, 0.157081, -0.0785117, -0.0885258, 0.82797, -0.44968, 0.31826, 0.10471, 0.0181116, 0.0188475, 0.0339432, 0.824532, -0.500535, 0.244551, 0.099026, -0.226568, -0.0306291, -0.273955, 0.831253, -0.447884, 0.310658, 0.109131, 0, 0, 0, 0, 0, 0, 0.0470157, 0.0174059, 0.0081474, 0, 0, 0, -1.31362, -0.309763, -0.322872, 0.00289699, 0.00446498, -0.00603761, 1, 0, 0.002, 0.04, 10, 1000, 4, 0.03
1, 1, 0.578895, 1.68153e-05, 1, 0, 0.157207, -0.0784766, -0.088492, 0.828548, -0.448559, 0.318081, 0.105488, 0.0181116, 0.0188475, 0.0339432, 0.824532, -0.500535, 0.244551, 0.099026, -0.226167, -0.0304545, -0.273877, 0.831077, -0.448374, 0.310291, 0.109504, 0, 0, 0, 0, 0, 0, 0.0226264, 0.0149714, 0.00592302, 0, 0, 0, -1.31362, -0.309763, -0.322872, 0.00289699, 0.00446498, -0.00603761, 1, 0, 0.002, 0.04, 10, 1000, 4, 0.03
1, 1, 0.578895, 1.68153e-05, 1, 0, 0.157348, -0.0784367, -0.0884495, 0.828933, -0.44782, 0.317882, 0.106198, 0.0181116, 0.0188475, 0.0339432, 0.824532, -0.500535, 0.244551, 0.099026, -0.225748, -0.0302703, -0.273804, 0.830857, -0.448973, 0.30985, 0.109967, 0, 0, 0, 0, 0, 0, 0.0468344, 0.0181324, 0.00741267, 0, 0, 0, -1.31362, -0.309763, -0.322872, 0.00289699, 0.00446498, -0.00603761, 1, 0, 0.002, 0.04, 10, 1000, 4, 0.03
1, 1, 0.617538, 9.61594e-05, 1, 0, 0.157465, -0.0784053, -0.0884129, 0.828914, -0.44788, 0.31771, 0.10661, 0.018746, 0.019064, 0.0339331, 0.830558, -0.502919, 0.223231, 0.086099, -0.225363, -0.0300905, -0.273744, 0.830712, -0.449536, 0.309976, 0.108394, 0, 0, 0, 0, 0, 0, 0.02095, 0.0270524, 0.0106242, 0, 0, 0, -1.06188, -0.255786, -0.47342, 0.0047885, 0.00546643, -0.00585588, 1, 0, 0.002, 0.04, 10, 1000, 4, 0.03
1, 1, 0.617538, 9.61594e-05, 1, 0, 0.157613, -0.0783608, -0.0883727, 0.828976, -0.447918, 0.317352, 0.107035, 0.018746, 0.019064, 0.0339331, 0.830558, -0.502919, 0.223231, 0.086099, -0.225018, -0.0299315, -0.273695, 0.83051, -0.450074, 0.309588, 0.108824, 0, 0, 0, 0, 0, 0, 0.0225526, 0.0169227, 0.00474834, 0, 0, 0, -1.06188, -0.255786, -0.47342, 0.0047885, 0.00546643, -0.00585588, 1, 0, 0.002, 0.04, 10, 1000, 4, 0.03
1, 1, 0.617538, 9.61594e-05, 1, 0, 0.157753, -0.0782978, -0.0883354, 0.829062, -0.448039, 0.317148, 0.106466, 0.018746, 0.019064, 0.0339331, 0.830558, -0.502919, 0.223231, 0.086099, -0.224648, -0.0297622, -0.273641, 0.830524, -0.451536, 0.307434, 0.10876, 0, 0, 0, 0, 0, 0, 0.0440454, 0.0179197, 0.00648041, 0, 0, 0, -1.06188, -0.255786, -0.47342, 0.0047885, 0.00546643, -0.00585588, 1, 0, 0.002, 0.04, 10, 1000, 4, 0.03
1, 1, 0.654451, 0.00025123, 1, 0, 0.157876, -0.0782575, -0.088299, 0.828798, -0.44872, 0.316965, 0.106197, 0.0192058, 0.019279, 0.0339556, 0.834106, -0.504262, 0.209588, 0.0778444, -0.224329, -0.0295988, -0.2736, 0.830656, -0.453315, 0.304227, 0.109372, 0, 0, 0, 0, 0, 0, 0.0224845, 0.0166466, 0.00459622, 0, 0, 0, -0.967571, -0.201425, -0.560266, 0.00588995, 0.00599555, -0.00542652, 1, 0, 0.002, 0.04, 10, 1000, 4, 0.03
1, 1, 0.654451, 0.00025123, 1, 0, 0.158018, -0.0782001, -0.0882541, 0.828378, -0.449826, 0.316808, 0.105263, 0.0192058, 0.019279, 0.0339556, 0.834106, -0.504262, 0.209588, 0.0778444, -0.223983, -0.0294408, -0.273551, 0.830725, -0.454595, 0.30219, 0.109183, 0, 0, 0, 0, 0, 0, 0.0232293, 0.0126264, 0.0030745, 0, 0, 0, -0.967571, -0.201425, -0.560266, 0.00588995, 0.00599555, -0.00542652, 1, 0, 0.002, 0.04, 10, 1000, 4, 0.03
1, 1, 0.654451, 0.00025123, 1, 0, 0.158145, -0.0781494, -0.0882106, 0.827887, -0.451135, 0.316447, 0.104606, 0.0192058, 0.019279, 0.0339556, 0.834106, -0.504262, 0.209588, 0.0778444, -0.223679, -0.0292957, -0.273509, 0.83067, -0.455365, 0.300804, 0.110214, 0, 0, 0, 0, 0, 0, 0.0469161, 0.0189064, 0.00640158, 0, 0, 0, -0.967571, -0.201425, -0.560266, 0.00588995, 0.00599555, -0.00542652, 1, 0, 0.002, 0.04, 10, 1000, 4, 0.03
1, 1, 0.654451, 0.00025123, 1, 0, 0.158255, -0.0781114, -0.0881752, 0.827654, -0.451942, 0.315946, 0.104479, 0.0192058, 0.019279, 0.0339556, 0.834106, -0.504262, 0.209588, 0.0778444, -0.223351, -0.0291164, -0.273471, 0.831974, -0.453615, 0.299137, 0.112116, 0, 0, 0, 0, 0, 0, 0.0471092, 0.016384, 0.00348832, 0, 0, 0, -0.967571, -0.201425, -0.560266, 0.00588995, 0.00599555, -0.00542652, 1, 0, 0.002, 0.04, 10, 1000, 4, 0.03
1, 1, 0.689578, 0.0003831, 1, 0, 0.15836, -0.0780673, -0.0881532, 0.828052, -0.451712, 0.31508, 0.104937, 0.0196318, 0.019509, 0.0339985, 0.836764, -0.505233, 0.198712, 0.0712729, -0.223032, -0.0289381, -0.273444, 0.831951, -0.454263, 0.297845, 0.113097, 0, 0, 0, 0, 0, 0, 0.0224342, 0.0193834, 0.00220727, 0, 0, 0, -0.914133, -0.14553, -0.646298, 0.00630339, 0.00630947, -0.00472043, 1, 0, 0.002, 0.04, 10, 1000, 4, 0.03
1, 1, 0.689578, 0.0003831, 1, 0, 0.158456, -0.0780398, -0.0881276, 0.828312, -0.451713, 0.314056, 0.105941, 0.0196318, 0.019509, 0.0339985, 0.836764, -0.505233, 0.198712, 0.0712729, -0.222727, -0.0287697, -0.273433, 0.831828, -0.454533, 0.297668, 0.113385, 0, 0, 0, 0, 0, 0, 0.0231542, 0.0175555, -0.00112767, 0, 0, 0, -0.914133, -0.14553, -0.646298, 0.00630339, 0.00630947, -0.00472043, 1, 0, 0.002, 0.04, 10, 1000, 4, 0.03
1, 1, 0.689578, 0.0003831, 1, 0, 0.158546, -0.0780169, -0.0881061, 0.828293, -0.452223, 0.313122, 0.106676, 0.0196318, 0.019509, 0.0339985, 0.836764, -0.505233, 0.198712, 0.0712729, -0.22238, -0.0285891, -0.273425, 0.833092, -0.452839, 0.295954, 0.115352, 0, 0, 0, 0, 0, 0, 0.047405, 0.0200534, 0.000378056, 0, 0, 0, -0.914133, -0.14553, -0.646298, 0.00630339, 0.00630947, -0.00472043, 1, 0, 0.002, 0.04, 10, 1000, 4, 0.03
1, 1, 0.724901, 0.000498583, 1, 0, 0.158645, -0.0779824, -0.0880863, 0.828466, -0.452407, 0.312237, 0.107151, 0.0200605, 0.0197317, 0.0340464, 0.839027, -0.50603, 0.188929, 0.0653688, -0.222074, -0.028429, -0.273428, 0.832963, -0.453114, 0.295776, 0.115655, 0, 0, 0, 0, 0, 0, 0.0468435, 0.0199914, 0.000274369, 0, 0, 0, -0.914133, -0.14553, -0.646298, 0.00630339, 0.00630947, -0.00472043, 1, 0, 0.002, 0.04, 10, 1000, 4, 0.03
1, 1, 0.724901, 0.000498583, 1, 0, 0.158753, -0.077961, -0.0880692, 0.82895, -0.451759, 0.311597, 0.107993, 0.0200605, 0.0197317, 0.0340464, 0.839027, -0.50603, 0.188929, 0.0653688, -0.221719, -0.0282242, -0.27343, 0.832862, -0.453917, 0.294382, 0.116789, 0, 0, 0, 0, 0, 0, 0.0472137, 0.0237576, 0.0021174, 0, 0, 0, -0.850444, -0.0670588, -0.672903, 0.00697661, 0.00658297, -0.00431906, 1, 0, 0.002, 0.04, 10, 1000, 4, 0.03
1, 1, 0.724901, 0.000498583, 1, 0, 0.158847, -0.077952, -0.0880481, 0.828995, -0.451787, 0.311126, 0.108891, 0.0200605, 0.0197317, 0.0340464, 0.839027, -0.50603, 0.188929, 0.0653688, -0.221346, -0.028018, -0.273441, 0.834055, -0.451749, 0.293848, 0.118018, 0, 0, 0, 0, 0, 0, 0.047479, 0.0199659, 0.000277271, 0, 0, 0, -0.850444, -0.0670588, -0.672903, 0.00697661, 0.00658297, -0.00431906, 1, 0, 0.002, 0.04, 10, 1000, 4, 0.03
1, 1, 0.724901, 0.000498583, 1, 0, 0.158944, -0.0779305, -0.0880243, 0.829026, -0.451928, 0.310581, 0.10962, 0.0200605, 0.0197317, 0.0340464, 0.839027, -0.50603, 0.188929, 0.0653688, -0.221, -0.0278068, -0.273451, 0.833974, -0.452482, 0.292504, 0.119113, 0, 0, 0, 0, 0, 0, 0.0222352, 0.0248837, -0.00248902, 0, 0, 0, -0.850444, -0.0670588, -0.672903, 0.00697661, 0.00658297, -0.00431906, 1, 0, 0.002, 0.04, 10, 1000, 4, 0.03
1, 1, 0.763986, 0.00061267, 1, 0, 0.159044, -0.0779075, -0.0880128, 0.82945, -0.451388, 0.309923, 0.110498, 0.0204235, 0.0199204, 0.0340919, 0.840842, -0.506648, 0.18068, 0.0603959, -0.220589, -0.0275416, -0.273465, 0.833895, -0.45318, 0.291194, 0.120223, 0, 0, 0, 0, 0, 0, 0.0472248, 0.0242596, -0.00319923, 0, 0, 0, -0.850444, -0.0670588, -0.672903, 0.00697661, 0.00658297, -0.00431906, 1, 0, 0.002, 0.04, 10, 1000, 4, 0.03
1, 1, 0.763986, 0.00061267, 1, 0, 0.159131, -0.0778892, -0.0879929, 0.829508, -0.451453, 0.309389, 0.111289, 0.0204235, 0.0199204, 0.0340919, 0.840842, -0.506648, 0.18068, 0.0603959, -0.22022, -0.0272811, -0.273492, 0.833805, -0.453885, 0.289884, 0.121349, 0, 0, 0, 0, 0, 0, 0.0218627, 0.0360355, -0.0118963, 0, 0, 0, -0.796057, 0.0382433, -0.674849, 0.00774969, 0.00683425, -0.00417259, 1, 0, 0.002, 0.04, 10, 1000, 4, 0.03
1, 1, 0.763986, 0.00061267, 1, 0, 0.159217, -0.0778738, -0.0879676, 0.829352, -0.451834, 0.308879, 0.112314, 0.0204235, 0.0199204, 0.0340919, 0.840842, -0.506648, 0.18068, 0.0603959, -0.219819, -0.0269859, -0.273522, 0.835028, -0.45217, 0.288178, 0.123389, 0, 0, 0, 0, 0, 0, 0.0450005, 0.0496571, -0.00511044, 0, 0, 0, -0.796057, 0.0382433, -0.674849, 0.00774969, 0.00683425, -0.00417259, 1, 0, 0.002, 0.04, 10, 1000, 4, 0.03
1, 1, 0.763986, 0.00061267, 1, 0, 0.159318, -0.077846, -0.0879516, 0.829485, -0.451838, 0.30826, 0.113019, 0.0204235, 0.0199204, 0.0340919, 0.840842, -0.506648, 0.18068, 0.0603959, -0.219367, -0.0266624, -0.27356, 0.834871, -0.452999, 0.286783, 0.124649, 0, 0, 0, 0, 0, 0, 0.0471829, 0.0272515, -0.00118235, 0, 0, 0, -0.796057, 0.0382433, -0.674849, 0.00774969, 0.00683425, -0.00417259, 1, 0, 0.002, 0.04, 10, 1000, 4, 0.03
1, 1, 0.802727, 0.000682253, 1, 0, 0.159414, -0.0778193, -0.0879373, 0.829733, -0.451643, 0.307504, 0.114027, 0.020724, 0.0200856, 0.0341233, 0.8432, -0.507416, 0.169332, 0.0535623, -0.218891, -0.0263213, -0.273589, 0.834688, -0.453888, 0.285339, 0.125949, 0, 0, 0, 0, 0, 0, 0.0466095, 0.0383711, -0.0106038, 0, 0, 0, -0.913052, 0.032786, -0.704674, 0.00885405, 0.00702819, -0.00385134, 1, 0, 0.002, 0.04, 10, 1000, 4, 0.03
1, 1, 0.802727, 0.000682253, 1, 0, 0.15951, -0.0778054, -0.0879207, 0.829527, -0.452229, 0.306586, 0.115667, 0.020724, 0.0200856, 0.0341233, 0.8432, -0.507416, 0.169332, 0.0535623, -0.218387, -0.0259783, -0.273616, 0.834491, -0.4548, 0.283875, 0.127265, 0, 0, 0, 0, 0, 0, 0.0466595, 0.0383233, -0.0106936, 0, 0, 0, -0.913052, 0.032786, -0.704674, 0.00885405, 0.00702819, -0.00385134, 1, 0, 0.002, 0.04, 10, 1000, 4, 0.03
1, 1, 0.802727, 0.000682253, 1, 0, 0.159597, -0.0777938, -0.0879155, 0.829378, -0.452869, 0.305424, 0.117297, 0.020724, 0.0200856, 0.0341233, 0.8432, -0.507416, 0.169332, 0.0535623, -0.217916, -0.0256711, -0.27363, 0.835646, -0.45324, 0.282013, 0.129377, 0, 0, 0, 0, 0, 0, 0.0715592, 0.0293043, 3.07831e-05, 0, 0, 0, -0.913052, 0.032786, -0.704674, 0.00885405, 0.00702819, -0.00385134, 1, 0, 0.002, 0.04, 10, 1000, 4, 0.03
1, 1, 0.802727, 0.000682253, 1, 0, 0.159697, -0.0777517, -0.0879204, 0.82962, -0.453066, 0.303982, 0.118561, 0.020724, 0.0200856, 0.0341233, 0.8432, -0.507416, 0.169332, 0.0535623, -0.217378, -0.0253265, -0.273635, 0.835416, -0.454237, 0.280465, 0.130721, 0, 0, 0, 0, 0, 0, 0.045478, 0.0499476, -0.00536555, 0, 0, 0, -0.913052, 0.032786, -0.704674, 0.00885405, 0.00702819, -0.00385134, 1, 0, 0.002, 0.04, 10, 1000, 4, 0.03
1, 1, 0.802727, 0.000682253, 1, 0, 0.159784, -0.077712, -0.0879285, 0.829842, -0.453251, 0.30262, 0.119781, 0.020724, 0.0200856, 0.0341233, 0.8432, -0.507416, 0.169332, 0.0535623, -0.216863, -0.025001, -0.27364, 0.836538, -0.452191, 0.279799, 0.13206, 0, 0, 0, 0, 0, 0, 0.0468676, 0.0382403, -0.010846, 0, 0, 0, -0.913052, 0.032786, -0.704674, 0.00885405, 0.00702819, -0.00385134, 1, 0, 0.002, 0.04, 10, 1000, 4, 0.03
1, 1, 0.844051, 0.000769815, 1, 0, 0.159839, -0.077694, -0.0879332, 0.829889, -0.453445, 0.301906, 0.12052, 0.0210076, 0.0202427, 0.0341528, 0.85379, -0.493126, 0.159057, 0.0506898, -0.216563, -0.0248227, -0.273644, 0.836394, -0.452485, 0.279603, 0.132382, 0, 0, 0, 0, 0, 0, 0.0707567, 0.0400949, 0.00539787, 0, 0, 0, -1.12791, -0.00804655, -0.699331, 0.00955425, 0.00717362, -0.00211169, 1, 0, 0.002, 0.04, 10, 1000, 4, 0.03
1, 1, 0.844051, 0.000769815, 1, 0, 0.159947, -0.0776578, -0.0879429, 0.830313, -0.45307, 0.300558, 0.12236, 0.0210076, 0.0202427, 0.0341528, 0.85379, -0.493126, 0.159057, 0.0506898, -0.215963, -0.0244749, -0.273637, 0.836182, -0.453437, 0.278071, 0.13368, 0, 0, 0, 0, 0, 0, 0.0708133, 0.0400376, 0.00534414, 0, 0, 0, -1.12791, -0.00804655, -0.699331, 0.00955425, 0.00717362, -0.00211169, 1, 0, 0.002, 0.04, 10, 1000, 4, 0.03
1, 1, 0.844051, 0.000769815, 1, 0, 0.160055, -0.0776184, -0.0879526, 0.830647, -0.452843, 0.299509, 0.123504, 0.0210076, 0.0202427, 0.0341528, 0.85379, -0.493126, 0.159057, 0.0506898, -0.215152, -0.0239987, -0.273639, 0.837157, -0.451699, 0.277174, 0.135318, 0, 0, 0, 0, 0, 0, 0.0721543, 0.0288036, -0.000203086, 0, 0, 0, -1.12791, -0.00804655, -0.699331, 0.00955425, 0.00717362, -0.00211169, 1, 0, 0.002, 0.04, 10, 1000, 4, 0.03
1, 1, 0.883811, 0.000851883, 1, 0, 0.160187, -0.0775745, -0.0879589, 0.830864, -0.452731, 0.298609, 0.124628, 0.0213486, 0.0204293, 0.0341904, 0.855682, -0.492948, 0.150762, 0.0456317, -0.214841, -0.023829, -0.273637, 0.838357, -0.450035, 0.275313, 0.137221, 0, 0, 0, 0, 0, 0, 0.070354, 0.0397064, 0.00498231, 0, 0, 0, -1.24892, 0.0193898, -0.659236, 0.0104627, 0.00712583, -0.00200752, 1, 0, 0.002, 0.04, 10, 1000, 4, 0.03
1, 1, 0.883811, 0.000851883, 1, 0, 0.1603, -0.0775304, -0.0879641, 0.831278, -0.452123, 0.297914, 0.125729, 0.0213486, 0.0204293, 0.0341904, 0.855682, -0.492948, 0.150762, 0.0456317, -0.214211, -0.0234898, -0.273623, 0.838061, -0.450666, 0.274866, 0.137854, 0, 0, 0, 0, 0, 0, 0.0710951, 0.0358425, 0.00832042, 0, 0, 0, -1.24892, 0.0193898, -0.659236, 0.0104627, 0.00712583, -0.00200752, 1, 0, 0.002, 0.04, 10, 1000, 4, 0.03
1, 1, 0.883811, 0.000851883, 1, 0, 0.160433, -0.0774853, -0.0879713, 0.83187, -0.451167, 0.297048, 0.127293, 0.0213486, 0.0204293, 0.0341904, 0.855682, -0.492948, 0.150762, 0.0456317, -0.213639, -0.0231882, -0.273607, 0.840598, -0.446756, 0.273023, 0.138792, 0, 0, 0, 0, 0, 0, 0.0713432, 0.0396494, 0.00522998, 0, 0, 0, -1.24892, 0.0193898, -0.659236, 0.0104627, 0.00712583, -0.00200752, 1, 0, 0.002, 0.04, 10, 1000, 4, 0.03
1, 1, 0.883811, 0.000851883, 1, 0, 0.160546, -0.0774399, -0.0879823, 0.832651, -0.449937, 0.296092, 0.128755, 0.0213486, 0.0204293, 0.0341904, 0.855682, -0.492948, 0.150762, 0.0456317, -0.213, -0.0228426, -0.273579, 0.84166, -0.445352, 0.270938, 0.140934, 0, 0, 0, 0, 0, 0, 0.0727253, 0.0245657, 0.00271814, 0, 0, 0, -1.24892, 0.0193898, -0.659236, 0.0104627, 0.00712583, -0.00200752, 1, 0, 0.002, 0.04, 10, 1000, 4, 0.03
1, 1, 0.921118, 0.000900504, 1, 0, 0.160671, -0.0773685, -0.0879996, 0.833908, -0.448045, 0.29485, 0.130065, 0.0217646, 0.0206578, 0.0342218, 0.851834, -0.502015, 0.138463, 0.0564651, -0.212427, -0.0225352, -0.273549, 0.844066, -0.441363, 0.268475, 0.143776, 0, 0, 0, 0, 0, 0, 0.0469028, 0.0374565, 0.00396646, 0, 0, 0, -1.35201, 0.0326709, -0.61531, 0.010866, 0.00751873, -0.00386306, 1, 0, 0.002, 0.04, 10, 1000, 4, 0.03
1, 1, 0.921118, 0.000900504, 1, 0, 0.160794, -0.0772998, -0.0880227, 0.835399, -0.44575, 0.293353, 0.131753, 0.0217646, 0.0206578, 0.0342218, 0.851834, -0.502015, 0.138463, 0.0564651, -0.211812, -0.0221937, -0.273524, 0.84646, -0.437318, 0.266025, 0.146593, 0, 0, 0, 0, 0, 0, 0.0444062, 0.03587, 0.00326574, 0, 0, 0, -1.35201, 0.0326709, -0.61531, 0.010866, 0.00751873, -0.00386306, 1, 0, 0.002, 0.04, 10, 1000, 4, 0.03
1, 1, 0.921118, 0.000900504, 1, 0, 0.160886, -0.077245, -0.0880421, 0.837073, -0.442928, 0.291769, 0.134143, 0.0217646, 0.0206578, 0.0342218, 0.851834, -0.502015, 0.138463, 0.0564651, -0.211247, -0.0218809, -0.273491, 0.847541, -0.435796, 0.263964, 0.148592, 0, 0, 0, 0, 0, 0, 0.0465802, 0.0258423, -0.00185296, 0, 0, 0, -1.35201, 0.0326709, -0.61531, 0.010866, 0.00751873, -0.00386306, 1, 0, 0.002, 0.04, 10, 1000, 4, 0.03
1, 1, 0.921118, 0.000900504, 1, 0, 0.160973, -0.0771831, -0.0880674, 0.839256, -0.439206, 0.289623, 0.137353, 0.0217646, 0.0206578, 0.0342218, 0.851834, -0.502015, 0.138463, 0.0564651, -0.210632, -0.0215099, -0.273472, 0.848576, -0.433815, 0.263142, 0.149934, 0, 0, 0, 0, 0, 0, 0.0470224, 0.0371786, 0.00385598, 0, 0, 0, -1.35201, 0.0326709, -0.61531, 0.010866, 0.00751873, -0.00386306, 1, 0, 0.002, 0.04, 10, 1000, 4, 0.03
1, 1, 0.957085, 0.000900073, 1, 0, 0.161063, -0.0771189, -0.0880879, 0.84098, -0.436525, 0.287602, 0.139587, 0.0221743, 0.0208563, 0.0342173, 0.851834, -0.502015, 0.138463, 0.056465, -0.210018, -0.0211084, -0.273458, 0.850898, -0.429779, 0.260623, 0.15277, 0, 0, 0, 0, 0, 0, 0.0472776, 0.036954, 0.00398683, 0, 0, 0, -1.29236, -0.0126682, -0.564392, 0.0115074, 0.00650995, -0.00511704, 1, 0, 0.002, 0.04, 10, 1000, 4, 0.03
1, 1, 0.957085, 0.000900073, 1, 0, 0.161166, -0.0770502, -0.088111, 0.842794, -0.433683, 0.285379, 0.142045, 0.0221743, 0.0208563, 0.0342173, 0.851834, -0.502015, 0.138463, 0.056465, -0.209479, -0.0207372, -0.27346, 0.853392, -0.426121, 0.257584, 0.15425, 0, 0, 0, 0, 0, 0, 0.0720455, 0.0387414, 0.00481781, 0, 0, 0, -1.29236, -0.0126682, -0.564392, 0.0115074, 0.00650995, -0.00511704, 1, 0, 0.002, 0.04, 10, 1000, 4, 0.03
1, 1, 0.957085, 0.000900073, 1, 0, 0.161249, -0.0769981, -0.0881289, 0.84432, -0.431257, 0.283674, 0.143772, 0.0221743, 0.0208563, 0.0342173, 0.851834, -0.502015, 0.138463, 0.056465, -0.20889, -0.0203158, -0.273468, 0.855661, -0.422056, 0.255036, 0.157066, 0, 0, 0, 0, 0, 0, 0.0712983, 0.0496821, -0.00482827, 0, 0, 0, -1.29236, -0.0126682, -0.564392, 0.0115074, 0.00650995, -0.00511704, 1, 0, 0.002, 0.04, 10, 1000, 4, 0.03
1, 1, 0.957085, 0.000900073, 1, 0, 0.161391, -0.0768894, -0.0881663, 0.847025, -0.427165, 0.280684, 0.145928, 0.0221743, 0.0208563, 0.0342173, 0.851834, -0.502015, 0.138463, 0.056465, -0.208369, -0.0199239, -0.273481, 0.856895, -0.421351, 0.251189, 0.158427, 0, 0, 0, 0, 0, 0, 0.0472226, 0.0481163, -0.00569434, 0, 0, 0, -1.29236, -0.0126682, -0.564392, 0.0115074, 0.00650995, -0.00511704, 1, 0, 0.002, 0.04, 10, 1000, 4, 0.03
1, 1, 0.99381, 0.000895343, 1, 0, 0.161512, -0.0767945, -0.0881955, 0.849223, -0.423967, 0.278007, 0.147598, 0.0226139, 0.021059, 0.0342159, 0.851057, -0.501696, 0.143161, 0.0592339, -0.207813, -0.019491, -0.273516, 0.85916, -0.41716, 0.248696, 0.16116, 0, 0, 0, 0, 0, 0, 0.0471752, 0.047964, -0.00578325, 0, 0, 0, -1.25115, -0.185514, -0.452719, 0.0114719, 0.00506081, -0.00655132, 1, 0, 0.002, 0.04, 10, 1000, 4, 0.03
1, 1, 0.99381, 0.000895343, 1, 0, 0.161617, -0.0767214, -0.0882181, 0.851183, -0.420901, 0.275532, 0.149704, 0.0226139, 0.021059, 0.0342159, 0.851057, -0.501696, 0.143161, 0.0592339, -0.207256, -0.0190511, -0.273558, 0.86155, -0.413481, 0.245593, 0.162629, 0, 0, 0, 0, 0, 0, 0.0475258, 0.0480211, -0.00576204, 0, 0, 0, -1.25115, -0.185514, -0.452719, 0.0114719, 0.00506081, -0.00655132, 1, 0, 0.002, 0.04, 10, 1000, 4, 0.03
1, 1, 0.99381, 0.000895343, 1, 0, 0.161732, -0.0766327, -0.0882475, 0.853541, -0.417325, 0.272459, 0.1519, 0.0226139, 0.021059, 0.0342159, 0.851057, -0.501696, 0.143161, 0.0592339, -0.206758, -0.0186474, -0.273618, 0.862585, -0.411729, 0.243624, 0.164544, 0, 0, 0, 0, 0, 0, 0.0468509, 0.0472662, -0.00578368, 0, 0, 0, -1.25115, -0.185514, -0.452719, 0.0114719, 0.00506081, -0.00655132, 1, 0, 0.002, 0.04, 10, 1000, 4, 0.03
1, 1, 0.99381, 0.000895343, 1, 0, 0.16183, -0.076549, -0.0882779, 0.855576, -0.414373, 0.269475, 0.153842, 0.0226139, 0.021059, 0.0342159, 0.851057, -0.501696, 0.143161, 0.0592339, -0.206222, -0.0182341, -0.273716, 0.864926, -0.407532, 0.241831, 0.165344, 0, 0, 0, 0, 0, 0, 0.0474082, 0.0477246, -0.00584315, 0, 0, 0, -1.25115, -0.185514, -0.452719, 0.0114719, 0.00506081, -0.00655132, 1, 0, 0.002, 0.04, 10, 1000, 4, 0.03
1, 1, 1.04034, 0.00078501, 1, 0, 0.161952, -0.0764482, -0.0883047, 0.857742, -0.411399, 0.266219, 0.155425, 0.0230178, 0.0212465, 0.0342354, 0.849301, -0.500959, 0.153232, 0.0651731, -0.205666, -0.0178204, -0.273836, 0.865846, -0.405474, 0.241023, 0.166763, 0, 0, 0, 0, 0, 0, 0.048398, 0.0365033, -0.0115813, 0, 0, 0, -1.30463, -0.444692, -0.265526, 0.0107796, 0.0031822, -0.00805149, 1, 0, 0.002, 0.04, 10, 1000, 4, 0.03
1, 1, 1.04034, 0.00078501, 1, 0, 0.162067, -0.0763647, -0.0883202, 0.859469, -0.408817, 0.263619, 0.157121, 0.0230178, 0.0212465, 0.0342354, 0.849301, -0.500959, 0.153232, 0.0651731, -0.205099, -0.0174463, -0.273965, 0.867969, -0.401324, 0.238393, 0.169521, 0, 0, 0, 0, 0, 0, 0.0483052, 0.0363325, -0.0115748, 0, 0, 0, -1.30463, -0.444692, -0.265526, 0.0107796, 0.0031822, -0.00805149, 1, 0, 0.002, 0.04, 10, 1000, 4, 0.03
1, 1, 1.04034, 0.00078501, 1, 0, 0.162199, -0.0762859, -0.0883223, 0.861233, -0.405813, 0.26129, 0.159127, 0.0230178, 0.0212465, 0.0342354, 0.849301, -0.500959, 0.153232, 0.0651731, -0.204545, -0.0171291, -0.274091, 0.869051, -0.39977, 0.236999, 0.169605, 0, 0, 0, 0, 0, 0, 0.0488963, 0.0326226, -0.0136309, 0, 0, 0, -1.30463, -0.444692, -0.265526, 0.0107796, 0.0031822, -0.00805149, 1, 0, 0.002, 0.04, 10, 1000, 4, 0.03
1, 1, 1.04034, 0.00078501, 1, 0, 0.162349, -0.076214, -0.0883178, 0.862878, -0.402727, 0.259588, 0.160829, 0.0230178, 0.0212465, 0.0342354, 0.849301, -0.500959, 0.153232, 0.0651731, -0.204051, -0.0168557, -0.274197, 0.871127, -0.395194, 0.235582, 0.171638, 0, 0, 0, 0, 0, 0, 0.0491219, 0.0308098, -0.0145947, 0, 0, 0, -1.30463, -0.444692, -0.265526, 0.0107796, 0.0031822, -0.00805149, 1, 0, 0.002, 0.04, 10, 1000, 4, 0.03
1, 1, 1.08069, 0.000648956, 1, 0, 0.162524, -0.0761341, -0.0883094, 0.864782, -0.399001, 0.258063, 0.162342, 0.0235099, 0.0214765, 0.0342795, 0.853418, -0.487297, 0.168162, 0.0770836, -0.203389, -0.0165262, -0.274338, 0.874458, -0.388603, 0.233055, 0.173196, 0, 0, 0, 0, 0, 0, 0.0491944, 0.0291562, -0.0153951, 0, 0, 0, -1.26395, -0.449367, -0.164096, 0.00950893, 0.00197366, -0.00807864, 1, 0, 0.002, 0.04, 10, 1000, 4, 0.03
1, 1, 1.08069, 0.000648956, 1, 0, 0.162664, -0.076077, -0.0882988, 0.866706, -0.39464, 0.256963, 0.16447, 0.0235099, 0.0214765, 0.0342795, 0.853418, -0.487297, 0.168162, 0.0770836, -0.2029, -0.0163176, -0.274435, 0.876487, -0.384003, 0.231591, 0.17515, 0, 0, 0, 0, 0, 0, 0.0498407, 0.0174477, -0.00713388, 0, 0, 0, -1.26395, -0.449367, -0.164096, 0.00950893, 0.00197366, -0.00807864, 1, 0, 0.002, 0.04, 10, 1000, 4, 0.03
1, 1, 1.08069, 0.000648956, 1, 0, 0.162789, -0.0760277, -0.0882954, 0.868853, -0.389812, 0.255861, 0.166359, 0.0235099, 0.0214765, 0.0342795, 0.853418, -0.487297, 0.168162, 0.0770836, -0.202373, -0.0161312, -0.274531, 0.878497, -0.379929, 0.228723, 0.177713, 0, 0, 0, 0, 0, 0, 0.0498451, 0.0157001, -0.00722782, 0, 0, 0, -1.26395, -0.449367, -0.164096, 0.00950893, 0.00197366, -0.00807864, 1, 0, 0.002, 0.04, 10, 1000, 4, 0.03
1, 1, 1.08069, 0.000648956, 1, 0, 0.162929, -0.0759594, -0.088305, 0.871313, -0.384581, 0.254385, 0.167925, 0.0235099, 0.0214765, 0.0342795, 0.853418, -0.487297, 0.168162, 0.0770836, -0.201925, -0.015989, -0.274608, 0.880489, -0.375332, 0.227191, 0.179582, 0, 0, 0, 0, 0, 0, 0.0503343, 0.0151655, -0.00771375, 0, 0, 0, -1.26395, -0.449367, -0.164096, 0.00950893, 0.00197366, -0.00807864, 1, 0, 0.002, 0.04, 10, 1000, 4, 0.03
1, 1, 1.11848, 0.000445432, 1, 0, 0.163046, -0.0759067, -0.0883102, 0.873406, -0.379994, 0.252806, 0.169871, 0.0241056, 0.0217907, 0.0343354, 0.850854, -0.488015, 0.175131, 0.0849597, -0.201441, -0.0158534, -0.274677, 0.882446, -0.370766, 0.225605, 0.18145, 0, 0, 0, 0, 0, 0, 0.0498508, 0.0144001, -0.00772686, 0, 0, 0, -1.17176, -0.278838, -0.13352, 0.00926177, 0.000896793, -0.0101491, 1, 0, 0.002, 0.04, 10, 1000, 4, 0.03
1, 1, 1.11848, 0.000445432, 1, 0, 0.163171, -0.0758508, -0.0883172, 0.875672, -0.375037, 0.2509, 0.172033, 0.0241056, 0.0217907, 0.0343354, 0.850854, -0.488015, 0.175131, 0.0849597, -0.200964, -0.0157423, -0.274759, 0.884357, -0.366257, 0.223952, 0.18334, 0, 0, 0, 0, 0, 0, 0.0499059, 0.0122016, -0.00887596, 0, 0, 0, -1.17176, -0.278838, -0.13352, 0.00926177, 0.000896793, -0.0101491, 1, 0, 0.002, 0.04, 10, 1000, 4, 0.03
1, 1, 1.11848, 0.000445432, 1, 0, 0.163286, -0.075798, -0.0883227, 0.877685, -0.370523, 0.249008, 0.17429, 0.0241056, 0.0217907, 0.0343354, 0.850854, -0.488015, 0.175131, 0.0849597, -0.200557, -0.0156509, -0.27484, 0.886297, -0.36158, 0.222413, 0.18512, 0, 0, 0, 0, 0, 0, 0.0249495, 0.00960234, -0.0102811, 0, 0, 0, -1.17176, -0.278838, -0.13352, 0.00926177, 0.000896793, -0.0101491, 1, 0, 0.002, 0.04, 10, 1000, 4, 0.03
1, 1, 1.15437, 0.000334695, 1, 0, 0.163391, -0.0757398, -0.0883265, 0.879409, -0.366803, 0.247263, 0.175944, 0.0245972, 0.0220612, 0.0343313, 0.849545, -0.492733, 0.165136, 0.090653, -0.200123, -0.0155508, -0.274949, 0.887179, -0.359962, 0.220095, 0.186815, 0, 0, 0, 0, 0, 0, 0.0475964, 0.00955919, -0.009931, 0, 0, 0, -1.01148, -0.102018, -0.160259, 0.00953883, 0.00109974, -0.0120008, 1, 0, 0.002, 0.04, 10, 1000, 4, 0.03
1, 1, 1.15437, 0.000334695, 1, 0, 0.163516, -0.0756747, -0.0883325, 0.880993, -0.36363, 0.245275, 0.177386, 0.0245972, 0.0220612, 0.0343313, 0.849545, -0.492733, 0.165136, 0.090653, -0.19976, -0.0154467, -0.275068, 0.887002, -0.360361, 0.219794, 0.187235, 0, 0, 0, 0, 0, 0, 0.0505474, 0.00913505, -0.0104991, 0, 0, 0, -1.01148, -0.102018, -0.160259, 0.00953883, 0.00109974, -0.0120008, 1, 0, 0.002, 0.04, 10, 1000, 4, 0.03
1, 1, 1.15437, 0.000334695, 1, 0, 0.16358, -0.0756395, -0.0883367, 0.881622, -0.362511, 0.244255, 0.177954, 0.0245972, 0.0220612, 0.0343313, 0.849545, -0.492733, 0.165136, 0.090653, -0.199556, -0.0153819, -0.275142, 0.886936, -0.36102, 0.218308, 0.188021, 0, 0, 0, 0, 0, 0, 0.0500134, 0.0191708, -0.0205917, 0, 0, 0, -1.01148, -0.102018, -0.160259, 0.00953883, 0.00109974, -0.0120008, 1, 0, 0.002, 0.04, 10, 1000, 4, 0.03
1, 1, 1.18845, 0.000375409, 1, 0, 0.163706, -0.0755683, -0.0883368, 0.882386, -0.361385, 0.24293, 0.178271, 0.0249929, 0.0222642, 0.034324, 0.853524, -0.486547, 0.162804, 0.0909103, -0.199167, -0.01523, -0.275311, 0.886776, -0.361285, 0.218134, 0.188464, 0, 0, 0, 0, 0, 0, 0.0496109, 0.0187977, -0.0205334, 0, 0, 0, -1.01148, -0.102018, -0.160259, 0.00953883, 0.00109974, -0.0120008, 1, 0, 0.002, 0.04, 10, 1000, 4, 0.03
1, 1, 1.18845, 0.000375409, 1, 0, 0.163861, -0.0755009, -0.0883254, 0.882657, -0.361175, 0.241737, 0.178975, 0.0249929, 0.0222642, 0.034324, 0.853524, -0.486547, 0.162804, 0.0909103, -0.198814, -0.015088, -0.275475, 0.886894, -0.362314, 0.216305, 0.18804, 0, 0, 0, 0, 0, 0, 0.0249041, 0.0192305, -0.0207184, 0, 0, 0, -0.995903, -0.121103, -0.144713, 0.00947698, 0.0010925, -0.0116663, 1, 0, 0.002, 0.04, 10, 1000, 4, 0.03
1, 1, 1.18845, 0.000375409, 1, 0, 0.164003, -0.0754351, -0.0883144, 0.882785, -0.361376, 0.24064, 0.179417, 0.0249929, 0.0222642, 0.034324, 0.853524, -0.486547, 0.162804, 0.0909103, -0.198417, -0.0148974, -0.275657, 0.887856, -0.36029, 0.214333, 0.189644, 0, 0, 0, 0, 0, 0, 0.0238288, 0.0191901, -0.0194708, 0, 0, 0, -0.995903, -0.121103, -0.144713, 0.00947698, 0.0010925, -0.0116663, 1, 0, 0.002, 0.04, 10, 1000, 4, 0.03
1, 1, 1.18845, 0.000375409, 1, 0, 0.164121, -0.0753599, -0.0883154, 0.883278, -0.360999, 0.239425, 0.179377, 0.0249929, 0.0222642, 0.034324, 0.853524, -0.486547, 0.162804, 0.0909103, -0.19803, -0.0146843, -0.275839, 0.890075, -0.356062, 0.21138, 0.190538, 0, 0, 0, 0, 0, 0, 0.0532355, 0.024007, -0.020209, 0, 0, 0, -0.995903, -0.121103, -0.144713, 0.00947698, 0.0010925, -0.0116663, 1, 0, 0.002, 0.04, 10, 1000, 4, 0.03
1, 1, 1.22175, 0.000374315, 1, 0, 0.164227, -0.0753009, -0.0883226, 0.884104, -0.359541, 0.23793, 0.180222, 0.0253677, 0.0224659, 0.0343429, 0.860212, -0.474022, 0.162767, 0.094044, -0.197706, -0.0144665, -0.276007, 0.891031, -0.353984, 0.209432, 0.192088, 0, 0, 0, 0, 0, 0, 0.0249425, 0.0214191, -0.019777, 0, 0, 0, -0.969711, -0.175538, -0.103055, 0.00906377, 0.001099, -0.0104385, 1, 0, 0.002, 0.04, 10, 1000, 4, 0.03
1, 1, 1.22175, 0.000374315, 1, 0, 0.164323, -0.0752355, -0.0883359, 0.885203, -0.357624, 0.236511, 0.180508, 0.0253677, 0.0224659, 0.0343429, 0.860212, -0.474022, 0.162767, 0.094044, -0.197357, -0.0142088, -0.276199, 0.890859, -0.354211, 0.209311, 0.192596, 0, 0, 0, 0, 0, 0, 0.0487507, 0.0257991, -0.0166735, 0, 0, 0, -0.969711, -0.175538, -0.103055, 0.00906377, 0.001099, -0.0104385, 1, 0, 0.002, 0.04, 10, 1000, 4, 0.03
1, 1, 1.22175, 0.000374315, 1, 0, 0.164432, -0.0751685, -0.0883514, 0.886215, -0.355846, 0.235041, 0.180975, 0.0253677, 0.0224659, 0.0343429, 0.860212, -0.474022, 0.162767, 0.094044, -0.197052, -0.0139456, -0.276377, 0.893046, -0.349935, 0.206375, 0.193451, 0, 0, 0, 0, 0, 0, 0.0245751, 0.0269325, -0.0168505, 0, 0, 0, -0.969711, -0.175538, -0.103055, 0.00906377, 0.001099, -0.0104385, 1, 0, 0.002, 0.04, 10, 1000, 4, 0.03
1, 1, 1.22175, 0.000374315, 1, 0, 0.164537, -0.0751238, -0.0883684, 0.887239, -0.353848, 0.233467, 0.181912, 0.0253677, 0.0224659, 0.0343429, 0.860212, -0.474022, 0.162767, 0.094044, -0.19673, -0.0136351, -0.276574, 0.894096, -0.348003, 0.205248, 0.193285, 0, 0, 0, 0, 0, 0, 0.0245681, 0.026862, -0.0168571, 0, 0, 0, -0.969711, -0.175538, -0.103055, 0.00906377, 0.001099, -0.0104385, 1, 0, 0.002, 0.04, 10, 1000, 4, 0.03
1, 1, 1.25709, 0.000344225, 1, 0, 0.164619, -0.0750614, -0.0884002, 0.888492, -0.351695, 0.231672, 0.182267, 0.0258277, 0.0227264, 0.0343731, 0.860586, -0.474124, 0.16107, 0.0930275, -0.196409, -0.0132939, -0.276777, 0.895163, -0.346503, 0.202783, 0.193644, 0, 0, 0, 0, 0, 0, 0.0245477, 0.0287195, -0.0159741, 0, 0, 0, -0.857269, -0.255514, -0.000348332, 0.00912975, 0.000690627, -0.0110802, 1, 0, 0.002, 0.04, 10, 1000, 4, 0.03
1, 1, 1.25709, 0.000344225, 1, 0, 0.164706, -0.0749938, -0.0884341, 0.889805, -0.349482, 0.229797, 0.182492, 0.0258277, 0.0227264, 0.0343731, 0.860586, -0.474124, 0.16107, 0.0930275, -0.196115, -0.0129775, -0.276949, 0.89622, -0.344532, 0.201682, 0.193422, 0, 0, 0, 0, 0, 0, 0.0495169, 0.0313953, -0.014397, 0, 0, 0, -0.857269, -0.255514, -0.000348332, 0.00912975, 0.000690627, -0.0110802, 1, 0, 0.002, 0.04, 10, 1000, 4, 0.03
1, 1, 1.25709, 0.000344225, 1, 0, 0.164786, -0.0749378, -0.0884673, 0.890907, -0.347629, 0.228078, 0.182811, 0.0258277, 0.0227264, 0.0343731, 0.860586, -0.474124, 0.16107, 0.0930275, -0.195795, -0.0125903, -0.277151, 0.896267, -0.345628, 0.199833, 0.193168, 0, 0, 0, 0, 0, 0, 0.024282, 0.0341433, -0.0131436, 0, 0, 0, -0.857269, -0.255514, -0.000348332, 0.00912975, 0.000690627, -0.0110802, 1, 0, 0.002, 0.04, 10, 1000, 4, 0.03
1, 1, 1.29321, 0.000346882, 1, 0, 0.164884, -0.0748726, -0.088494, 0.891822, -0.346228, 0.226393, 0.1831, 0.026185, 0.0229074, 0.0343695, 0.873886, -0.447237, 0.152765, 0.113864, -0.195587, -0.012356, -0.277269, 0.897398, -0.343492, 0.198846, 0.192743, 0, 0, 0, 0, 0, 0, 0.0243545, 0.030301, -0.0149613, 0, 0, 0, -0.770511, -0.39086, 0.106124, 0.00720932, 0.00171934, -0.00973162, 1, 0, 0.002, 0.04, 10, 1000, 4, 0.03
1, 1, 1.29321, 0.000346882, 1, 0, 0.164968, -0.0748196, -0.0885184, 0.892431, -0.345433, 0.225113, 0.183215, 0.026185, 0.0229074, 0.0343695, 0.873886, -0.447237, 0.152765, 0.113864, -0.195155, -0.011825, -0.277526, 0.898416, -0.34194, 0.19644, 0.193227, 0, 0, 0, 0, 0, 0, 0.0243754, 0.0340706, -0.0132166, 0, 0, 0, -0.770511, -0.39086, 0.106124, 0.00720932, 0.00171934, -0.00973162, 1, 0, 0.002, 0.04, 10, 1000, 4, 0.03
1, 1, 1.29321, 0.000346882, 1, 0, 0.165048, -0.0747355, -0.088554, 0.893329, -0.34457, 0.223259, 0.182731, 0.026185, 0.0229074, 0.0343695, 0.873886, -0.447237, 0.152765, 0.113864, -0.194835, -0.0114237, -0.277721, 0.8985, -0.342904, 0.194687, 0.192902, 0, 0, 0, 0, 0, 0, 0.0238978, 0.0558655, -0.0325031, 0, 0, 0, -0.770511, -0.39086, 0.106124, 0.00720932, 0.00171934, -0.00973162, 1, 0, 0.002, 0.04, 10, 1000, 4, 0.03
1, 1, 1.29321, 0.000346882, 1, 0, 0.165126, -0.0746369, -0.0885987, 0.894337, -0.343721, 0.2212, 0.181898, 0.026185, 0.0229074, 0.0343695, 0.873886, -0.447237, 0.152765, 0.113864, -0.194444, -0.0109737, -0.277956, 0.89974, -0.341263, 0.193306, 0.191419, 0, 0, 0, 0, 0, 0, 0.0256678, 0.0590835, -0.0351809, 0, 0, 0, -0.770511, -0.39086, 0.106124, 0.00720932, 0.00171934, -0.00973162, 1, 0, 0.002, 0.04, 10, 1000, 4, 0.03
1, 1, 1.33379, 0.000294726, 1, 0, 0.165198, -0.0745658, -0.0886308, 0.895026, -0.34309, 0.219583, 0.181659, 0.0265818, 0.0230867, 0.0343581, 0.870288, -0.448619, 0.160584, 0.124708, -0.194035, -0.0105083, -0.278193, 0.899761, -0.342345, 0.191467, 0.191233, 0, 0, 0, 0, 0, 0, 0.0252844, 0.0583464, -0.0344857, 0, 0, 0, -0.770511, -0.39086, 0.106124, 0.00720932, 0.00171934, -0.00973162, 1, 0, 0.002, 0.04, 10, 1000, 4, 0.03
1, 1, 1.33379, 0.000294726, 1, 0, 0.165278, -0.0744932, -0.0886617, 0.895698, -0.342403, 0.218031, 0.181517, 0.0265818, 0.0230867, 0.0343581, 0.870288, -0.448619, 0.160584, 0.124708, -0.19365, -0.0101068, -0.278421, 0.899747, -0.343067, 0.190932, 0.19054, 0, 0, 0, 0, 0, 0, 0.0498273, 0.0522837, -0.0347866, 0, 0, 0, -0.753645, -0.663898, 0.254681, 0.00570396, 0.00093174, -0.010189, 1, 0, 0.002, 0.04, 10, 1000, 4, 0.03
1, 1, 1.33379, 0.000294726, 1, 0, 0.165366, -0.0744299, -0.0886862, 0.895993, -0.342447, 0.21687, 0.181368, 0.0265818, 0.0230867, 0.0343581, 0.870288, -0.448619, 0.160584, 0.124708, -0.193193, -0.00967271, -0.278664, 0.900709, -0.341211, 0.189768, 0.19049, 0, 0, 0, 0, 0, 0, 0.049808, 0.0306993, -0.014757, 0, 0, 0, -0.753645, -0.663898, 0.254681, 0.00570396, 0.00093174, -0.010189, 1, 0, 0.002, 0.04, 10, 1000, 4, 0.03
1, 1, 1.33379, 0.000294726, 1, 0, 0.165474, -0.0743504, -0.0887172, 0.896342, -0.342533, 0.215716, 0.180854, 0.0265818, 0.0230867, 0.0343581, 0.870288, -0.448619, 0.160584, 0.124708, -0.192753, -0.00928646, -0.278878, 0.90068, -0.342001, 0.189172, 0.189803, 0, 0, 0, 0, 0, 0, 0.0501569, 0.0530411, -0.0347193, 0, 0, 0, -0.753645, -0.663898, 0.254681, 0.00570396, 0.00093174, -0.010189, 1, 0, 0.002, 0.04, 10, 1000, 4, 0.03
1, 1, 1.33379, 0.000294726, 1, 0, 0.165575, -0.0742746, -0.0887545, 0.896867, -0.342099, 0.214608, 0.180394, 0.0265818, 0.0230867, 0.0343581, 0.870288, -0.448619, 0.160584, 0.124708, -0.192233, -0.00888312, -0.279105, 0.900854, -0.343184, 0.188219, 0.187778, 0, 0, 0, 0, 0, 0, 0.0493347, 0.0522109, -0.0340745, 0, 0, 0, -0.753645, -0.663898, 0.254681, 0.00570396, 0.00093174, -0.010189, 1, 0, 0.002, 0.04, 10, 1000, 4, 0.03
1, 1, 1.37618, 0.000146557, 1, 0, 0.165707, -0.0741867, -0.0887848, 0.897042, -0.342585, 0.213884, 0.179456, 0.0269692, 0.0232876, 0.0343758, 0.875833, -0.427115, 0.175912, 0.139802, -0.191621, -0.00847051, -0.279337, 0.90077, -0.34411, 0.187511, 0.187194, 0, 0, 0, 0, 0, 0, 0.0499402, 0.0506523, -0.0354724, 0, 0, 0, -0.825229, -0.774828, 0.404817, 0.00359596, 0.000242603, -0.00839401, 1, 0, 0.002, 0.04, 10, 1000, 4, 0.03
1, 1, 1.37618, 0.000146557, 1, 0, 0.165829, -0.0741016, -0.0888188, 0.897129, -0.343423, 0.213435, 0.177952, 0.0269692, 0.0232876, 0.0343758, 0.875833, -0.427115, 0.175912, 0.139802, -0.191036, -0.00812166, -0.279527, 0.901952, -0.342689, 0.185938, 0.185673, 0, 0, 0, 0, 0, 0, 0.050095, 0.0305748, -0.0149077, 0, 0, 0, -0.825229, -0.774828, 0.404817, 0.00359596, 0.000242603, -0.00839401, 1, 0, 0.002, 0.04, 10, 1000, 4, 0.03
1, 1, 1.37618, 0.000146557, 1, 0, 0.16595, -0.0740214, -0.0888568, 0.897411, -0.343629, 0.212763, 0.176933, 0.0269692, 0.0232876, 0.0343758, 0.875833, -0.427115, 0.175912, 0.139802, -0.190511, -0.00783731, -0.279685, 0.901958, -0.343447, 0.185333, 0.184844, 0, 0, 0, 0, 0, 0, 0.0518345, 0.0292637, -0.0165915, 0, 0, 0, -0.825229, -0.774828, 0.404817, 0.00359596, 0.000242603, -0.00839401, 1, 0, 0.002, 0.04, 10, 1000, 4, 0.03
1, 1, 1.37618, 0.000146557, 1, 0, 0.166037, -0.0739416, -0.0889023, 0.89801, -0.343158, 0.211785, 0.175976, 0.0269692, 0.0232876, 0.0343758, 0.875833, -0.427115, 0.175912, 0.139802, -0.189905, -0.00755186, -0.279842, 0.902959, -0.342103, 0.182676, 0.185095, 0, 0, 0, 0, 0, 0, 0.0506135, 0.0274759, -0.0167337, 0, 0, 0, -0.825229, -0.774828, 0.404817, 0.00359596, 0.000242603, -0.00839401, 1, 0, 0.002, 0.04, 10, 1000, 4, 0.03
1, 1, 1.41592, 5.95313e-05, 1, 0, 0.166128, -0.0738563, -0.0889526, 0.898635, -0.342732, 0.21055, 0.175098, 0.0274363, 0.0235572, 0.0343427, 0.880094, -0.406525, 0.165285, 0.181252, -0.189369, -0.00733087, -0.279967, 0.902959, -0.342936, 0.181997, 0.184219, 0, 0, 0, 0, 0, 0, 0.050561, 0.027392, -0.0167315, 0, 0, 0, -0.875315, -0.777985, 0.470557, -3.18232e-05, 0.00228486, -0.00755783, 1, 0, 0.002, 0.04, 10, 1000, 4, 0.03
1, 1, 1.41592, 5.95313e-05, 1, 0, 0.166213, -0.0737841, -0.0889923, 0.898984, -0.342894, 0.2097, 0.174002, 0.0274363, 0.0235572, 0.0343427, 0.880094, -0.406525, 0.165285, 0.181252, -0.188725, -0.00710069, -0.280099, 0.903923, -0.341243, 0.180653, 0.183959, 0, 0, 0, 0, 0, 0, 0.0762591, 0.0156646, -0.00728313, 0, 0, 0, -0.875315, -0.777985, 0.470557, -3.18232e-05, 0.00228486, -0.00755783, 1, 0, 0.002, 0.04, 10, 1000, 4, 0.03
1, 1, 1.41592, 5.95313e-05, 1, 0, 0.166324, -0.0736985, -0.0890378, 0.899345, -0.343215, 0.208594, 0.172829, 0.0274363, 0.0235572, 0.0343427, 0.880094, -0.406525, 0.165285, 0.181252, -0.18808, -0.00691031, -0.280218, 0.903647, -0.341447, 0.181553, 0.184049, 0, 0, 0, 0, 0, 0, 0.0762411, 0.0255141, -0.0177251, 0, 0, 0, -0.875315, -0.777985, 0.470557, -3.18232e-05, 0.00228486, -0.00755783, 1, 0, 0.002, 0.04, 10, 1000, 4, 0.03
1, 1, 1.45384, 0.000184878, 1, 0, 0.166423, -0.0736494, -0.0890822, 0.8998, -0.342678, 0.207431, 0.172927, 0.0279058, 0.0238556, 0.034262, 0.877992, -0.404654, 0.174538, 0.186873, -0.187488, -0.00675285, -0.280322, 0.904433, -0.339337, 0.180556, 0.18507, 0, 0, 0, 0, 0, 0, 0.0762544, 0.024888, -0.0180476, 0, 0, 0, -0.78087, -0.66852, 0.478399, -0.00102407, 0.00160303, -0.00757891, 1, 0, 0.002, 0.04, 10, 1000, 4, 0.03
1, 1, 1.45384, 0.000184878, 1, 0, 0.166529, -0.0736079, -0.0891257, 0.900088, -0.342409, 0.206374, 0.173225, 0.0279058, 0.0238556, 0.034262, 0.877992, -0.404654, 0.174538, 0.186873, -0.186833, -0.00661074, -0.280423, 0.904192, -0.339979, 0.180036, 0.185576, 0, 0, 0, 0, 0, 0, 0.0763716, 0.0134878, -0.00870955, 0, 0, 0, -0.78087, -0.66852, 0.478399, -0.00102407, 0.00160303, -0.00757891, 1, 0, 0.002, 0.04, 10, 1000, 4, 0.03
1, 1, 1.45384, 0.000184878, 1, 0, 0.166621, -0.0735681, -0.0891642, 0.90051, -0.341783, 0.20535, 0.173484, 0.0279058, 0.0238556, 0.034262, 0.877992, -0.404654, 0.174538, 0.186873, -0.186232, -0.00647819, -0.280517, 0.903983, -0.340523, 0.179594, 0.186026, 0, 0, 0, 0, 0, 0, 0.07627, 0.0126958, -0.00888274, 0, 0, 0, -0.78087, -0.66852, 0.478399, -0.00102407, 0.00160303, -0.00757891, 1, 0, 0.002, 0.04, 10, 1000, 4, 0.03
1, 1, 1.48791, 0.000260893, 1, 0, 0.166729, -0.0735388, -0.0892013, 0.900743, -0.34133, 0.204474, 0.174199, 0.0282439, 0.0242013, 0.0342447, 0.867307, -0.411466, 0.170981, 0.221901, -0.185558, -0.0063457, -0.280623, 0.904756, -0.338457, 0.17854, 0.18705, 0, 0, 0, 0, 0, 0, 0.0762979, 0.0124673, -0.00887569, 0, 0, 0, -0.78087, -0.66852, 0.478399, -0.00102407, 0.00160303, -0.00757891, 1, 0, 0.002, 0.04, 10, 1000, 4, 0.03
1, 1, 1.48791, 0.000260893, 1, 0, 0.166833, -0.0735011, -0.0892367, 0.901029, -0.340926, 0.203727, 0.174389, 0.0282439, 0.0242013, 0.0342447, 0.867307, -0.411466, 0.170981, 0.221901, -0.184902, -0.00621455, -0.28073, 0.904546, -0.338996, 0.178095, 0.187512, 0, 0, 0, 0, 0, 0, 0.0763961, 0.0232497, -0.0188451, 0, 0, 0, -0.818498, -0.375916, 0.548556, -0.00357063, 0.00210553, -0.00915876, 1, 0, 0.002, 0.04, 10, 1000, 4, 0.03
1, 1, 1.48791, 0.000260893, 1, 0, 0.166892, -0.0734828, -0.0892569, 0.901224, -0.340559, 0.203332, 0.174562, 0.0282439, 0.0242013, 0.0342447, 0.867307, -0.411466, 0.170981, 0.221901, -0.184632, -0.0061499, -0.280773, 0.904451, -0.339239, 0.177897, 0.187716, 0, 0, 0, 0, 0, 0, 0.0510878, 0.0225241, -0.0191899, 0, 0, 0, -0.818498, -0.375916, 0.548556, -0.00357063, 0.00210553, -0.00915876, 1, 0, 0.002, 0.04, 10, 1000, 4, 0.03
1, 1, 1.48791, 0.000260893, 1, 0, 0.167064, -0.0734497, -0.0892952, 0.901261, -0.34037, 0.202627, 0.175552, 0.0282439, 0.0242013, 0.0342447, 0.867307, -0.411466, 0.170981, 0.221901, -0.183626, -0.00590973, -0.280987, 0.904115, -0.340041, 0.177249, 0.188498, 0, 0, 0, 0, 0, 0, 0.0536922, 0.0226197, -0.0209755, 0, 0, 0, -0.818498, -0.375916, 0.548556, -0.00357063, 0.00210553, -0.00915876, 1, 0, 0.002, 0.04, 10, 1000, 4, 0.03
1, 1, 1.52264, 0.000348078, 1, 0, 0.167132, -0.0734402, -0.0893091, 0.901202, -0.340467, 0.202408, 0.175919, 0.0285747, 0.0242368, 0.0340594, 0.866712, -0.410864, 0.157388, 0.235011, -0.183356, -0.0058462, -0.281053, 0.904232, -0.340618, 0.176781, 0.187327, 0, 0, 0, 0, 0, 0, 0.076437, 0.0215868, -0.0198799, 0, 0, 0, -0.907544, -0.426631, 0.464726, -0.00420451, 0.00324226, -0.00967364, 1, 0, 0.002, 0.04, 10, 1000, 4, 0.03
1, 1, 1.52264, 0.000348078, 1, 0, 0.167272, -0.0734127, -0.0893358, 0.901107, -0.340744, 0.202037, 0.176299, 0.0285747, 0.0242368, 0.0340594, 0.866712, -0.410864, 0.157388, 0.235011, -0.182699, -0.00564211, -0.281243, 0.903996, -0.341123, 0.176392, 0.187916, 0, 0, 0, 0, 0, 0, 0.0507575, 0.0211616, -0.0199396, 0, 0, 0, -0.907544, -0.426631, 0.464726, -0.00420451, 0.00324226, -0.00967364, 1, 0, 0.002, 0.04, 10, 1000, 4, 0.03
1, 1, 1.52264, 0.000348078, 1, 0, 0.167398, -0.0733715, -0.0893661, 0.900992, -0.34144, 0.201569, 0.176076, 0.0285747, 0.0242368, 0.0340594, 0.866712, -0.410864, 0.157388, 0.235011, -0.182061, -0.00541628, -0.281454, 0.903745, -0.341639, 0.176004, 0.188547, 0, 0, 0, 0, 0, 0, 0.0756983, 0.0211268, -0.0197607, 0, 0, 0, -0.907544, -0.426631, 0.464726, -0.00420451, 0.00324226, -0.00967364, 1, 0, 0.002, 0.04, 10, 1000, 4, 0.03
1, 1, 1.52264, 0.000348078, 1, 0, 0.16754, -0.0733244, -0.089396, 0.900825, -0.342231, 0.201109, 0.17592, 0.0285747, 0.0242368, 0.0340594, 0.866712, -0.410864, 0.157388, 0.235011, -0.181512, -0.00519189, -0.281667, 0.90352, -0.342068, 0.175692, 0.189139, 0, 0, 0, 0, 0, 0, 0.0509577, 0.02111, -0.0200835, 0, 0, 0, -0.907544, -0.426631, 0.464726, -0.00420451, 0.00324226, -0.00967364, 1, 0, 0.002, 0.04, 10, 1000, 4, 0.03
1, 1, 1.5587, 0.000344687, 1, 0, 0.167672, -0.0732984, -0.0894172, 0.900635, -0.342655, 0.200766, 0.176455, 0.0289197, 0.0243584, 0.0338262, 0.884352, -0.380743, 0.135221, 0.233822, -0.180891, -0.00491466, -0.281929, 0.903016, -0.342274, 0.175574, 0.191271, 0, 0, 0, 0, 0, 0, 0.0766895, 0.0208929, -0.0202894, 0, 0, 0, -1.01937, -0.497497, 0.377653, -0.00354613, 0.00563214, -0.00727074, 1, 0, 0.002, 0.04, 10, 1000, 4, 0.03
1, 1, 1.5587, 0.000344687, 1, 0, 0.167786, -0.0732731, -0.089437, 0.900519, -0.342785, 0.200414, 0.177196, 0.0289197, 0.0243584, 0.0338262, 0.884352, -0.380743, 0.135221, 0.233822, -0.180359, -0.00466177, -0.282181, 0.902755, -0.342758, 0.175233, 0.191949, 0, 0, 0, 0, 0, 0, 0.0510769, 0.0421592, -0.0403498, 0, 0, 0, -1.01937, -0.497497, 0.377653, -0.00354613, 0.00563214, -0.00727074, 1, 0, 0.002, 0.04, 10, 1000, 4, 0.03
1, 1, 1.5587, 0.000344687, 1, 0, 0.167907, -0.0732518, -0.089456, 0.90024, -0.343245, 0.199981, 0.178209, 0.0289197, 0.0243584, 0.0338262, 0.884352, -0.380743, 0.135221, 0.233822, -0.179791, -0.00436379, -0.282466, 0.902649, -0.343731, 0.174519, 0.191353, 0, 0, 0, 0, 0, 0, 0.0509079, 0.0203212, -0.0204584, 0, 0, 0, -1.01937, -0.497497, 0.377653, -0.00354613, 0.00563214, -0.00727074, 1, 0, 0.002, 0.04, 10, 1000, 4, 0.03
1, 1, 1.5587, 0.000344687, 1, 0, 0.168034, -0.0732089, -0.0894857, 0.899977, -0.344017, 0.199483, 0.178607, 0.0289197, 0.0243584, 0.0338262, 0.884352, -0.380743, 0.135221, 0.233822, -0.179268, -0.00406698, -0.282762, 0.903384, -0.341535, 0.173632, 0.19262, 0, 0, 0, 0, 0, 0, 0.0508052, 0.0416602, -0.0402364, 0, 0, 0, -1.01937, -0.497497, 0.377653, -0.00354613, 0.00563214, -0.00727074, 1, 0, 0.002, 0.04, 10, 1000, 4, 0.03
1, 1, 1.59805, 0.000251207, 1, 0, 0.168148, -0.0731773, -0.0895136, 0.899811, -0.344418, 0.19904, 0.179161, 0.0293397, 0.02466, 0.0336479, 0.888061, -0.386344, 0.113364, 0.221889, -0.178808, -0.00379381, -0.283038, 0.903326, -0.342377, 0.17303, 0.191936, 0, 0, 0, 0, 0, 0, 0.0511347, 0.0198863, -0.0208236, 0, 0, 0, -1.01616, -0.413298, 0.361644, -0.00168325, 0.00681717, -0.00737508, 1, 0, 0.002, 0.04, 10, 1000, 4, 0.03
1, 1, 1.59805, 0.000251207, 1, 0, 0.168276, -0.0731447, -0.089554, 0.899842, -0.344281, 0.198596, 0.179764, 0.0293397, 0.02466, 0.0336479, 0.888061, -0.386344, 0.113364, 0.221889, -0.17833, -0.00349101, -0.283343, 0.903042, -0.342859, 0.172716, 0.192699, 0, 0, 0, 0, 0, 0, 0.025629, 0.0201265, -0.0207482, 0, 0, 0, -1.01616, -0.413298, 0.361644, -0.00168325, 0.00681717, -0.00737508, 1, 0, 0.002, 0.04, 10, 1000, 4, 0.03
1, 1, 1.59805, 0.000251207, 1, 0, 0.168394, -0.0731057, -0.0895917, 0.899805, -0.344492, 0.198164, 0.180019, 0.0293397, 0.02466, 0.0336479, 0.888061, -0.386344, 0.113364, 0.221889, -0.177914, -0.00320379, -0.283622, 0.902997, -0.343642, 0.17217, 0.192001, 0, 0, 0, 0, 0, 0, 0.0247482, 0.0407424, -0.0389521, 0, 0, 0, -1.01616, -0.413298, 0.361644, -0.00168325, 0.00681717, -0.00737508, 1, 0, 0.002, 0.04, 10, 1000, 4, 0.03
1, 1, 1.59805, 0.000251207, 1, 0, 0.168514, -0.0730587, -0.0896371, 0.899718, -0.344919, 0.197622, 0.180235, 0.0293397, 0.02466, 0.0336479, 0.888061, -0.386344, 0.113364, 0.221889, -0.177489, -0.00290211, -0.283917, 0.902747, -0.344018, 0.17194, 0.192705, 0, 0, 0, 0, 0, 0, 0.0256806, 0.0421123, -0.0404667, 0, 0, 0, -1.01616, -0.413298, 0.361644, -0.00168325, 0.00681717, -0.00737508, 1, 0, 0.002, 0.04, 10, 1000, 4, 0.03
1, 1, 1.63481, 5.43247e-05, 1, 0, 0.168647, -0.0729996, -0.0896844, 0.899608, -0.345579, 0.197161, 0.18002, 0.0296491, 0.0248989, 0.0335166, 0.89081, -0.390742, 0.0947322, 0.211671, -0.1771, -0.0026005, -0.28419, 0.902696, -0.344816, 0.171389, 0.192011, 0, 0, 0, 0, 0, 0, 0.0514645, 0.0219274, -0.0199528, 0, 0, 0, -1.09785, -0.38809, 0.420338, -0.000459546, 0.00791354, -0.00744102, 1, 0, 0.002, 0.04, 10, 1000, 4, 0.03
1, 1, 1.63481, 5.43247e-05, 1, 0, 0.168753, -0.0729458, -0.0897315, 0.899554, -0.346081, 0.196777, 0.179747, 0.0296491, 0.0248989, 0.0335166, 0.89081, -0.390742, 0.0947322, 0.211671, -0.17671, -0.00227699, -0.284495, 0.902422, -0.345243, 0.171131, 0.192759, 0, 0, 0, 0, 0, 0, 0.0256843, 0.0219643, -0.0198108, 0, 0, 0, -1.09785, -0.38809, 0.420338, -0.000459546, 0.00791354, -0.00744102, 1, 0, 0.002, 0.04, 10, 1000, 4, 0.03
1, 1, 1.63481, 5.43247e-05, 1, 0, 0.168874, -0.072885, -0.0897795, 0.899384, -0.346796, 0.196372, 0.179664, 0.0296491, 0.0248989, 0.0335166, 0.89081, -0.390742, 0.0947322, 0.211671, -0.176366, -0.00197653, -0.28478, 0.90236, -0.346053, 0.170583, 0.19208, 0, 0, 0, 0, 0, 0, 0.051294, 0.0216803, -0.0199746, 0, 0, 0, -1.09785, -0.38809, 0.420338, -0.000459546, 0.00791354, -0.00744102, 1, 0, 0.002, 0.04, 10, 1000, 4, 0.03
1, 1, 1.63481, 5.43247e-05, 1, 0, 0.168981, -0.0728252, -0.0898284, 0.899231, -0.347555, 0.195999, 0.17937, 0.0296491, 0.0248989, 0.0335166, 0.89081, -0.390742, 0.0947322, 0.211671, -0.176021, -0.00164636, -0.285094, 0.902277, -0.346883, 0.170032, 0.19146, 0, 0, 0, 0, 0, 0, 0.0256636, 0.0218192, -0.0198465, 0, 0, 0, -1.09785, -0.38809, 0.420338, -0.000459546, 0.00791354, -0.00744102, 1, 0, 0.002, 0.04, 10, 1000, 4, 0.03
1, 1, 1.6792, 0.000120496, 1, 0, 0.169089, -0.0727525, -0.0898819, 0.899022, -0.34853, 0.195503, 0.179065, 0.0300283, 0.0251683, 0.0333261, 0.877869, -0.407946, 0.0575304, 0.244166, -0.175712, -0.00130866, -0.285403, 0.902187, -0.347728, 0.169479, 0.190842, 0, 0, 0, 0, 0, 0, 0.0256339, 0.021334, -0.0200621, 0, 0, 0, -1.1194, -0.437753, 0.443735, -0.00260215, 0.0108617, -0.0100764, 1, 0, 0.002, 0.04, 10, 1000, 4, 0.03
1, 1, 1.6792, 0.000120496, 1, 0, 0.169188, -0.0726792, -0.089939, 0.898983, -0.349287, 0.195027, 0.178306, 0.0300283, 0.0251683, 0.0333261, 0.877869, -0.407946, 0.0575304, 0.244166, -0.175475, -0.00101635, -0.285682, 0.902134, -0.348501, 0.168976, 0.190127, 0, 0, 0, 0, 0, 0, 0.0257686, 0.0213965, -0.0201892, 0, 0, 0, -1.1194, -0.437753, 0.443735, -0.00260215, 0.0108617, -0.0100764, 1, 0, 0.002, 0.04, 10, 1000, 4, 0.03
1, 1, 1.6792, 0.000120496, 1, 0, 0.169288, -0.0725878, -0.0899975, 0.89898, -0.350164, 0.194523, 0.177145, 0.0300283, 0.0251683, 0.0333261, 0.877869, -0.407946, 0.0575304, 0.244166, -0.175238, -0.000679168, -0.286003, 0.902022, -0.349388, 0.168409, 0.189534, 0, 0, 0, 0, 0, 0, 0.0258366, 0.0213995, -0.0202666, 0, 0, 0, -1.1194, -0.437753, 0.443735, -0.00260215, 0.0108617, -0.0100764, 1, 0, 0.002, 0.04, 10, 1000, 4, 0.03
1, 1, 1.6792, 0.000120496, 1, 0, 0.16938, -0.0725023, -0.0900554, 0.898932, -0.350915, 0.194097, 0.176368, 0.0300283, 0.0251683, 0.0333261, 0.877869, -0.407946, 0.0575304, 0.244166, -0.175065, -0.000372177, -0.286307, 0.901943, -0.350195, 0.167905, 0.188866, 0, 0, 0, 0, 0, 0, 0.0259609, 0.0422753, -0.0407117, 0, 0, 0, -1.1194, -0.437753, 0.443735, -0.00260215, 0.0108617, -0.0100764, 1, 0, 0.002, 0.04, 10, 1000, 4, 0.03
1, 1, 1.71757, 0.000264496, 1, 0, 0.169467, -0.072433, -0.0901044, 0.8988, -0.351814, 0.193763, 0.175616, 0.030506, 0.0255004, 0.0331008, 0.878442, -0.410578, 0.0479791, 0.239713, -0.174891, -1.2323e-05, -0.28664, 0.902054, -0.351342, 0.167162, 0.186856, 0, 0, 0, 0, 0, 0, 0.0129892, 0.0219244, -0.0200207, 0, 0, 0, -0.864576, -0.423836, 0.40688, -0.00242975, 0.0115063, -0.0100364, 1, 0, 0.002, 0.04, 10, 1000, 4, 0.03
1, 1, 1.71757, 0.000264496, 1, 0, 0.169552, -0.0723498, -0.0901587, 0.898712, -0.352716, 0.193387, 0.174671, 0.030506, 0.0255004, 0.0331008, 0.878442, -0.410578, 0.0479791, 0.239713, -0.174744, 0.000354618, -0.28699, 0.90298, -0.349494, 0.166122, 0.186773, 0, 0, 0, 0, 0, 0, 0.0130331, 0.0432818, -0.0403734, 0, 0, 0, -0.864576, -0.423836, 0.40688, -0.00242975, 0.0115063, -0.0100364, 1, 0, 0.002, 0.04, 10, 1000, 4, 0.03
1, 1, 1.71757, 0.000264496, 1, 0, 0.169626, -0.0722864, -0.0902118, 0.898873, -0.352833, 0.192949, 0.17409, 0.030506, 0.0255004, 0.0331008, 0.878442, -0.410578, 0.0479791, 0.239713, -0.174615, 0.000676218, -0.287299, 0.902932, -0.350187, 0.165718, 0.186066, 0, 0, 0, 0, 0, 0, 0.0130118, 0.0218867, -0.0201163, 0, 0, 0, -0.864576, -0.423836, 0.40688, -0.00242975, 0.0115063, -0.0100364, 1, 0, 0.002, 0.04, 10, 1000, 4, 0.03
1, 1, 1.7542, 0.000317552, 1, 0, 0.16969, -0.0722317, -0.0902691, 0.899126, -0.352534, 0.192425, 0.173969, 0.0308751, 0.025759, 0.0329419, 0.887028, -0.389163, 0.0485585, 0.243672, -0.174495, 0.00105788, -0.287653, 0.901806, -0.353586, 0.165862, 0.18497, 0, 0, 0, 0, 0, 0, 0.0130784, 0.0425369, -0.0404912, 0, 0, 0, -0.651737, -0.442059, 0.448751, -0.00301501, 0.0120698, -0.00820932, 1, 0, 0.002, 0.04, 10, 1000, 4, 0.03
1, 1, 1.7542, 0.000317552, 1, 0, 0.169768, -0.0721364, -0.0903268, 0.898974, -0.353939, 0.191868, 0.17251, 0.0308751, 0.025759, 0.0329419, 0.887028, -0.389163, 0.0485585, 0.243672, -0.174402, 0.00137882, -0.287973, 0.900727, -0.356857, 0.166077, 0.183747, 0, 0, 0, 0, 0, 0, 0.0130721, 0.0412974, -0.0413009, 0, 0, 0, -0.651737, -0.442059, 0.448751, -0.00301501, 0.0120698, -0.00820932, 1, 0, 0.002, 0.04, 10, 1000, 4, 0.03
1, 1, 1.7542, 0.000317552, 1, 0, 0.169851, -0.072032, -0.0903805, 0.898596, -0.356276, 0.191294, 0.170293, 0.0308751, 0.025759, 0.0329419, 0.887028, -0.389163, 0.0485585, 0.243672, -0.174292, 0.00171378, -0.288319, 0.899776, -0.360158, 0.167366, 0.18077, 0, 0, 0, 0, 0, 0, 0.00878237, 0.0403008, -0.0417766, 0, 0, 0, -0.651737, -0.442059, 0.448751, -0.00301501, 0.0120698, -0.00820932, 1, 0, 0.002, 0.04, 10, 1000, 4, 0.03
1, 1, 1.78809, 0.000253982, 1, 0, 0.169937, -0.0719158, -0.0904364, 0.897969, -0.359219, 0.190754, 0.16801, 0.0311845, 0.0259828, 0.0327875, 0.886528, -0.387316, 0.0552817, 0.246976, -0.17419, 0.002025, -0.288678, 0.898716, -0.36327, 0.167683, 0.179521, 0, 0, 0, 0, 0, 0, 0.00863482, 0.0178791, -0.0220478, 0, 0, 0, -0.651737, -0.442059, 0.448751, -0.00301501, 0.0120698, -0.00820932, 1, 0, 0.002, 0.04, 10, 1000, 4, 0.03
1, 1, 1.78809, 0.000253982, 1, 0, 0.170004, -0.0718348, -0.0904789, 0.897425, -0.361434, 0.190445, 0.166505, 0.0311845, 0.0259828, 0.0327875, 0.886528, -0.387316, 0.0552817, 0.246976, -0.174098, 0.00230603, -0.289008, 0.898738, -0.363272, 0.168889, 0.178269, 0, 0, 0, 0, 0, 0, 0.0129144, 0.0165524, -0.0227856, 0, 0, 0, -0.57624, -0.628519, 0.518454, -0.0040764, 0.0121053, -0.00720471, 1, 0, 0.002, 0.04, 10, 1000, 4, 0.03
1, 1, 1.78809, 0.000253982, 1, 0, 0.17008, -0.071742, -0.0905341, 0.896887, -0.363787, 0.190131, 0.164632, 0.0311845, 0.0259828, 0.0327875, 0.886528, -0.387316, 0.0552817, 0.246976, -0.174006, 0.00259344, -0.289369, 0.897868, -0.366686, 0.168952, 0.175583, 0, 0, 0, 0, 0, 0, 0.00861256, 0.0154263, -0.0233003, 0, 0, 0, -0.57624, -0.628519, 0.518454, -0.0040764, 0.0121053, -0.00720471, 1, 0, 0.002, 0.04, 10, 1000, 4, 0.03
1, 1, 1.78809, 0.000253982, 1, 0, 0.170135, -0.071664, -0.0905806, 0.896429, -0.365682, 0.19006, 0.163, 0.0311845, 0.0259828, 0.0327875, 0.886528, -0.387316, 0.0552817, 0.246976, -0.173915, 0.00282826, -0.289679, 0.896828, -0.369287, 0.1707, 0.173747, 0, 0, 0, 0, 0, 0, 0.00861486, 0.0154093, -0.023322, 0, 0, 0, -0.57624, -0.628519, 0.518454, -0.0040764, 0.0121053, -0.00720471, 1, 0, 0.002, 0.04, 10, 1000, 4, 0.03
1, 1, 1.82231, 0.000198471, 1, 0, 0.170183, -0.0715794, -0.0906348, 0.895978, -0.367612, 0.189982, 0.161217, 0.031542, 0.0262442, 0.03263, 0.885134, -0.38257, 0.0717124, 0.25502, -0.173824, 0.00304715, -0.289998, 0.896888, -0.369192, 0.171957, 0.172395, 0, 0, 0, 0, 0, 0, 0.0128701, 0.0152871, -0.0233493, 0, 0, 0, -0.40429, -0.651134, 0.549933, -0.00561438, 0.0116542, -0.00632542, 1, 0, 0.002, 0.04, 10, 1000, 4, 0.03
1, 1, 1.82231, 0.000198471, 1, 0, 0.170229, -0.0715039, -0.0906903, 0.895534, -0.369478, 0.190035, 0.159345, 0.031542, 0.0262442, 0.03263, 0.885134, -0.38257, 0.0717124, 0.25502, -0.173723, 0.00323546, -0.290299, 0.896933, -0.369613, 0.171724, 0.17149, 0, 0, 0, 0, 0, 0, 0.00982702, -0.00124049, -0.0329033, 0, 0, 0, -0.40429, -0.651134, 0.549933, -0.00561438, 0.0116542, -0.00632542, 1, 0, 0.002, 0.04, 10, 1000, 4, 0.03
1, 1, 1.82231, 0.000198471, 1, 0, 0.170249, -0.0714502, -0.0907488, 0.89543, -0.37017, 0.190006, 0.158359, 0.031542, 0.0262442, 0.03263, 0.885134, -0.38257, 0.0717124, 0.25502, -0.173614, 0.00338657, -0.290553, 0.896959, -0.369675, 0.172845, 0.170088, 0, 0, 0, 0, 0, 0, 0.00857797, 0.0135912, -0.0244285, 0, 0, 0, -0.40429, -0.651134, 0.549933, -0.00561438, 0.0116542, -0.00632542, 1, 0, 0.002, 0.04, 10, 1000, 4, 0.03
1, 1, 1.82231, 0.000198471, 1, 0, 0.170251, -0.0714166, -0.0908075, 0.895368, -0.370522, 0.189893, 0.158021, 0.031542, 0.0262442, 0.03263, 0.885134, -0.38257, 0.0717124, 0.25502, -0.173488, 0.00348481, -0.290768, 0.89701, -0.370174, 0.172519, 0.169063, 0, 0, 0, 0, 0, 0, 0.0128592, 0.0134331, -0.0244202, 0, 0, 0, -0.40429, -0.651134, 0.549933, -0.00561438, 0.0116542, -0.00632542, 1, 0, 0.002, 0.04, 10, 1000, 4, 0.03
1, 1, 1.85808, 6.6803e-05, 1, 0, 0.170253, -0.0713792, -0.090869, 0.895354, -0.370874, 0.189794, 0.157393, 0.0318256, 0.026507, 0.0325329, 0.87617, -0.383219, 0.0776425, 0.281853, -0.173343, 0.00356698, -0.290992, 0.897028, -0.370294, 0.173579, 0.167609, 0, 0, 0, 0, 0, 0, 0.0128678, 0.0134292, -0.0244527, 0, 0, 0, -0.18115, -0.48874, 0.590565, -0.00821139, 0.0118944, -0.0071249, 1, 0, 0.002, 0.04, 10, 1000, 4, 0.03
1, 1, 1.85808, 6.6803e-05, 1, 0, 0.170249, -0.0713404, -0.0909359, 0.89539, -0.371121, 0.189666, 0.156756, 0.0318256, 0.026507, 0.0325329, 0.87617, -0.383219, 0.0776425, 0.281853, -0.173189, 0.00362736, -0.291171, 0.897086, -0.370809, 0.173224, 0.166528, 0, 0, 0, 0, 0, 0, 0.012479, 0.012483, -0.0233261, 0, 0, 0, -0.18115, -0.48874, 0.590565, -0.00821139, 0.0118944, -0.0071249, 1, 0, 0.002, 0.04, 10, 1000, 4, 0.03
1, 1, 1.85808, 6.6803e-05, 1, 0, 0.170245, -0.0713124, -0.0910042, 0.895394, -0.3713, 0.189659, 0.156317, 0.0318256, 0.026507, 0.0325329, 0.87617, -0.383219, 0.0776425, 0.281853, -0.172981, 0.0036863, -0.291363, 0.896951, -0.370558, 0.174553, 0.166423, 0, 0, 0, 0, 0, 0, 0.0256508, 0.00314758, -0.0141199, 0, 0, 0, -0.18115, -0.48874, 0.590565, -0.00821139, 0.0118944, -0.0071249, 1, 0, 0.002, 0.04, 10, 1000, 4, 0.03
1, 1, 1.85808, 6.6803e-05, 1, 0, 0.17024, -0.0712926, -0.0910669, 0.895409, -0.37142, 0.1897, 0.155898, 0.0318256, 0.026507, 0.0325329, 0.87617, -0.383219, 0.0776425, 0.281853, -0.172755, 0.00372991, -0.29154, 0.895878, -0.373814, 0.174615, 0.164853, 0, 0, 0, 0, 0, 0, 0.0127647, 0.00289756, -0.0141991, 0, 0, 0, -0.18115, -0.48874, 0.590565, -0.00821139, 0.0118944, -0.0071249, 1, 0, 0.002, 0.04, 10, 1000, 4, 0.03
1, 1, 1.89921, 3.85059e-05, 1, 0, 0.170245, -0.0712606, -0.091133, 0.895161, -0.37232, 0.189795, 0.155055, 0.0318256, 0.026507, 0.0325329, 0.87617, -0.383219, 0.0776425, 0.281853, -0.172529, 0.00375974, -0.291669, 0.895743, -0.37362, 0.175881, 0.164679, 0, 0, 0, 0, 0, 0, 0.0257117, 0.00448913, -0.0133869, 0, 0, 0, -0.0383435, -0.251828, 0.659302, -0.00937973, 0.0108966, -0.00665409, 1, 0, 0.002, 0.04, 10, 1000, 4, 0.03
1, 1, 1.89921, 3.85059e-05, 1, 0, 0.17026, -0.071224, -0.0911941, 0.894793, -0.373648, 0.189946, 0.153793, 0.0319975, 0.0267131, 0.0324704, 0.87432, -0.377138, 0.096261, 0.289941, -0.172248, 0.00380365, -0.291801, 0.894669, -0.376873, 0.175914, 0.163059, 0, 0, 0, 0, 0, 0, 0.0257611, 0.00559952, -0.0128687, 0, 0, 0, -0.0383435, -0.251828, 0.659302, -0.00937973, 0.0108966, -0.00665409, 1, 0, 0.002, 0.04, 10, 1000, 4, 0.03
1, 1, 1.89921, 3.85059e-05, 1, 0, 0.170269, -0.0712078, -0.0912579, 0.894501, -0.374498, 0.190049, 0.153301, 0.0319975, 0.0267131, 0.0324704, 0.87432, -0.377138, 0.096261, 0.289941, -0.171958, 0.00385539, -0.291919, 0.894565, -0.377069, 0.175773, 0.163329, 0, 0, 0, 0, 0, 0, 0.0258746, 0.00628293, -0.0124515, 0, 0, 0, -0.0383435, -0.251828, 0.659302, -0.00937973, 0.0108966, -0.00665409, 1, 0, 0.002, 0.04, 10, 1000, 4, 0.03
1, 1, 1.89921, 3.85059e-05, 1, 0, 0.170294, -0.0711783, -0.0913155, 0.893836, -0.376441, 0.190275, 0.152135, 0.0319975, 0.0267131, 0.0324704, 0.87432, -0.377138, 0.096261, 0.289941, -0.171604, 0.0039361, -0.292044, 0.893283, -0.379583, 0.177465, 0.162688, 0, 0, 0, 0, 0, 0, 0.0256402, 0.00555819, -0.0128631, 0, 0, 0, -0.0383435, -0.251828, 0.659302, -0.00937973, 0.0108966, -0.00665409, 1, 0, 0.002, 0.04, 10, 1000, 4, 0.03
1, 1, 1.89921, 3.85059e-05, 1, 0, 0.170317, -0.0711595, -0.0913677, 0.893201, -0.378094, 0.190634, 0.151314, 0.0319975, 0.0267131, 0.0324704, 0.87432, -0.377138, 0.096261, 0.289941, -0.171258, 0.00402447, -0.292165, 0.892158, -0.382433, 0.178878, 0.160632, 0, 0, 0, 0, 0, 0, 0.0519322, 0.0201067, -0.0231746, 0, 0, 0, -0.0383435, -0.251828, 0.659302, -0.00937973, 0.0108966, -0.00665409, 1, 0, 0.002, 0.04, 10, 1000, 4, 0.03
1, 1, 1.94452, 0.000191846, 1, 0, 0.170331, -0.0711586, -0.091418, 0.892559, -0.379458, 0.191002, 0.15122, 0.0321797, 0.0266983, 0.0322987, 0.870756, -0.367581, 0.124437, 0.301966, -0.170831, 0.00415598, -0.292308, 0.89198, -0.382307, 0.180081, 0.16057, 0, 0, 0, 0, 0, 0, 0.0517349, 0.00821587, -0.0115549, 0, 0, 0, -0.0456857, -0.36167, 0.675602, -0.0112227, 0.00959363, -0.0055301, 1, 0, 0.002, 0.04, 10, 1000, 4, 0.03
1, 1, 1.94452, 0.000191846, 1, 0, 0.170356, -0.0711474, -0.0914655, 0.891948, -0.380932, 0.191402, 0.150617, 0.0321797, 0.0266983, 0.0322987, 0.870756, -0.367581, 0.124437, 0.301966, -0.170376, 0.00427898, -0.292445, 0.891947, -0.382576, 0.180966, 0.159113, 0, 0, 0, 0, 0, 0, 0.0517982, 0.0208782, -0.0207994, 0, 0, 0, -0.0456857, -0.36167, 0.675602, -0.0112227, 0.00959363, -0.0055301, 1, 0, 0.002, 0.04, 10, 1000, 4, 0.03
1, 1, 1.94452, 0.000191846, 1, 0, 0.170367, -0.071139, -0.0914932, 0.891677, -0.381607, 0.191546, 0.15033, 0.0321797, 0.0266983, 0.0322987, 0.870756, -0.367581, 0.124437, 0.301966, -0.170185, 0.00431895, -0.292491, 0.890751, -0.38534, 0.181339, 0.158721, 0, 0, 0, 0, 0, 0, 0.0515769, 0.0103134, -0.0104427, 0, 0, 0, -0.0456857, -0.36167, 0.675602, -0.0112227, 0.00959363, -0.0055301, 1, 0, 0.002, 0.04, 10, 1000, 4, 0.03
1, 1, 1.98317, 0.000449475, 1, 0, 0.170394, -0.0711208, -0.0915403, 0.891059, -0.383179, 0.191971, 0.149447, 0.0317944, 0.0270169, 0.0315145, 0.867827, -0.360891, 0.143446, 0.309931, -0.169683, 0.00448613, -0.292628, 0.890668, -0.385716, 0.182151, 0.157336, 0, 0, 0, 0, 0, 0, 0.0520523, 0.022927, -0.019855, 0, 0, 0, -0.621976, -0.13617, 0.0524295, -0.0124356, 0.00898257, -0.00459331, 1, 0, 0.002, 0.04, 10, 1000, 4, 0.03
1, 1, 1.98317, 0.000449475, 1, 0, 0.170427, -0.0710935, -0.0915833, 0.890452, -0.384833, 0.192357, 0.148318, 0.0317944, 0.0270169, 0.0315145, 0.867827, -0.360891, 0.143446, 0.309931, -0.16919, 0.0046533, -0.292753, 0.890512, -0.385791, 0.184299, 0.155522, 0, 0, 0, 0, 0, 0, 0.051813, 0.0240336, -0.019106, 0, 0, 0, -0.621976, -0.13617, 0.0524295, -0.0124356, 0.00898257, -0.00459331, 1, 0, 0.002, 0.04, 10, 1000, 4, 0.03
1, 1, 1.98317, 0.000449475, 1, 0, 0.170456, -0.071068, -0.091631, 0.890112, -0.385849, 0.192717, 0.147248, 0.0317944, 0.0270169, 0.0315145, 0.867827, -0.360891, 0.143446, 0.309931, -0.168732, 0.00484337, -0.292889, 0.889271, -0.388795, 0.185588, 0.153596, 0, 0, 0, 0, 0, 0, 0.0518473, 0.0250581, -0.0185668, 0, 0, 0, -0.621976, -0.13617, 0.0524295, -0.0124356, 0.00898257, -0.00459331, 1, 0, 0.002, 0.04, 10, 1000, 4, 0.03
1, 1, 1.98317, 0.000449475, 1, 0, 0.170492, -0.0710472, -0.091672, 0.889602, -0.387141, 0.193174, 0.146332, 0.0317944, 0.0270169, 0.0315145, 0.867827, -0.360891, 0.143446, 0.309931, -0.168228, 0.00507629, -0.293058, 0.889099, -0.389325, 0.186326, 0.152352, 0, 0, 0, 0, 0, 0, 0.0519017, 0.0238934, -0.0192123, 0, 0, 0, -0.621976, -0.13617, 0.0524295, -0.0124356, 0.00898257, -0.00459331, 1, 0, 0.002, 0.04, 10, 1000, 4, 0.03
1, 1, 2.0207, 0.000293496, 1, 0, 0.17054, -0.0710254, -0.0917125, 0.889012, -0.388601, 0.193827, 0.145185, 0.0319627, 0.0270107, 0.0314281, 0.866567, -0.358226, 0.150868, 0.313008, -0.167789, 0.00529468, -0.293235, 0.88781, -0.392577, 0.188553, 0.14874, 0, 0, 0, 0, 0, 0, 0.0261797, 0.0245665, -0.0188324, 0, 0, 0, -0.662603, -0.298933, 0.124393, -0.0131893, 0.00909833, -0.00426206, 1, 0, 0.002, 0.04, 10, 1000, 4, 0.03
1, 1, 2.0207, 0.000293496, 1, 0, 0.170591, -0.0709912, -0.0917582, 0.888496, -0.390018, 0.194443, 0.143711, 0.0319627, 0.0270107, 0.0314281, 0.866567, -0.358226, 0.150868, 0.313008, -0.16732, 0.00555629, -0.293445, 0.886403, -0.395836, 0.18969, 0.147042, 0, 0, 0, 0, 0, 0, 0.0263, 0.024557, -0.018965, 0, 0, 0, -0.662603, -0.298933, 0.124393, -0.0131893, 0.00909833, -0.00426206, 1, 0, 0.002, 0.04, 10, 1000, 4, 0.03
1, 1, 2.0207, 0.000293496, 1, 0, 0.170652, -0.0709534, -0.0917904, 0.887752, -0.392011, 0.195141, 0.141931, 0.0319627, 0.0270107, 0.0314281, 0.866567, -0.358226, 0.150868, 0.313008, -0.166897, 0.00581125, -0.293647, 0.886085, -0.396143, 0.191748, 0.145452, 0, 0, 0, 0, 0, 0, 0.0262767, 0.0245141, -0.018939, 0, 0, 0, -0.662603, -0.298933, 0.124393, -0.0131893, 0.00909833, -0.00426206, 1, 0, 0.002, 0.04, 10, 1000, 4, 0.03
1, 1, 2.05497, 0.000184186, 1, 0, 0.170718, -0.0708994, -0.0918288, 0.886871, -0.394524, 0.195753, 0.139609, 0.0321049, 0.0271203, 0.0313361, 0.86563, -0.356308, 0.156156, 0.31519, -0.16652, 0.00605236, -0.293834, 0.884803, -0.399722, 0.192622, 0.142278, 0, 0, 0, 0, 0, 0, 0.0521207, 0.0247403, -0.0188478, 0, 0, 0, -0.703732, -0.398922, 0.203697, -0.0140594, 0.00958627, -0.00374064, 1, 0, 0.002, 0.04, 10, 1000, 4, 0.03
1, 1, 2.05497, 0.000184186, 1, 0, 0.17079, -0.0708367, -0.0918694, 0.886058, -0.397044, 0.19626, 0.136888, 0.0321049, 0.0271203, 0.0313361, 0.86563, -0.356308, 0.156156, 0.31519, -0.166131, 0.00635284, -0.294047, 0.882126, -0.405124, 0.195618, 0.139505, 0, 0, 0, 0, 0, 0, 0.0520282, 0.024579, -0.0188643, 0, 0, 0, -0.703732, -0.398922, 0.203697, -0.0140594, 0.00958627, -0.00374064, 1, 0, 0.002, 0.04, 10, 1000, 4, 0.03
1, 1, 2.05497, 0.000184186, 1, 0, 0.170873, -0.07077, -0.0919154, 0.885006, -0.400082, 0.196868, 0.133949, 0.0321049, 0.0271203, 0.0313361, 0.86563, -0.356308, 0.156156, 0.31519, -0.165807, 0.00661724, -0.294244, 0.88076, -0.408218, 0.197921, 0.135821, 0, 0, 0, 0, 0, 0, 0.0263548, 0.0272671, -0.017405, 0, 0, 0, -0.703732, -0.398922, 0.203697, -0.0140594, 0.00958627, -0.00374064, 1, 0, 0.002, 0.04, 10, 1000, 4, 0.03
1, 1, 2.05497, 0.000184186, 1, 0, 0.170941, -0.0707205, -0.0919553, 0.883978, -0.402754, 0.197543, 0.131715, 0.0321049, 0.0271203, 0.0313361, 0.86563, -0.356308, 0.156156, 0.31519, -0.165492, 0.00690352, -0.294464, 0.880583, -0.408673, 0.19985, 0.132741, 0, 0, 0, 0, 0, 0, 0.0265655, 0.0309231, -0.0155541, 0, 0, 0, -0.703732, -0.398922, 0.203697, -0.0140594, 0.00958627, -0.00374064, 1, 0, 0.002, 0.04, 10, 1000, 4, 0.03
1, 1, 2.0901, 0.000122787, 1, 0, 0.171015, -0.070681, -0.0920012, 0.88282, -0.405496, 0.198453, 0.129684, 0.0323031, 0.0272691, 0.0312064, 0.863937, -0.359916, 0.15815, 0.31474, -0.165205, 0.00715955, -0.294688, 0.877934, -0.414304, 0.201501, 0.130312, 0, 0, 0, 0, 0, 0, 0.0248772, 0.0224628, -0.0182709, 0, 0, 0, -0.658013, -0.485871, 0.226116, -0.0148264, 0.0103203, -0.00338351, 1, 0, 0.002, 0.04, 10, 1000, 4, 0.03
1, 1, 2.0901, 0.000122787, 1, 0, 0.171083, -0.0706361, -0.0920466, 0.881647, -0.408283, 0.199367, 0.127503, 0.0323031, 0.0272691, 0.0312064, 0.863937, -0.359916, 0.15815, 0.31474, -0.164973, 0.00738053, -0.294875, 0.876611, -0.417657, 0.202461, 0.126983, 0, 0, 0, 0, 0, 0, 0.0263729, 0.023627, -0.0194653, 0, 0, 0, -0.658013, -0.485871, 0.226116, -0.0148264, 0.0103203, -0.00338351, 1, 0, 0.002, 0.04, 10, 1000, 4, 0.03
1, 1, 2.0901, 0.000122787, 1, 0, 0.171155, -0.070568, -0.0920929, 0.880463, -0.411415, 0.200149, 0.124347, 0.0323031, 0.0272691, 0.0312064, 0.863937, -0.359916, 0.15815, 0.31474, -0.164749, 0.00761619, -0.295077, 0.873913, -0.423235, 0.204092, 0.124475, 0, 0, 0, 0, 0, 0, 0.0259293, 0.0226803, -0.0194436, 0, 0, 0, -0.658013, -0.485871, 0.226116, -0.0148264, 0.0103203, -0.00338351, 1, 0, 0.002, 0.04, 10, 1000, 4, 0.03
1, 1, 2.0901, 0.000122787, 1, 0, 0.171241, -0.0704875, -0.0921406, 0.878702, -0.415863, 0.201028, 0.120533, 0.0323031, 0.0272691, 0.0312064, 0.863937, -0.359916, 0.15815, 0.31474, -0.16459, 0.00780954, -0.295244, 0.872448, -0.426264, 0.206359, 0.120621, 0, 0, 0, 0, 0, 0, 0.0133301, 0.0225867, -0.0200998, 0, 0, 0, -0.658013, -0.485871, 0.226116, -0.0148264, 0.0103203, -0.00338351, 1, 0, 0.002, 0.04, 10, 1000, 4, 0.03
1, 1, 2.12577, 0.00012223, 1, 0, 0.171299, -0.070424, -0.0921841, 0.877053, -0.419843, 0.201644, 0.117681, 0.0324983, 0.0275032, 0.0310729, 0.863796, -0.359631, 0.158935, 0.315058, -0.164432, 0.0080022, -0.295423, 0.869628, -0.431415, 0.20933, 0.11751, 0, 0, 0, 0, 0, 0, 0.0131587, 0.0117544, -0.00971939, 0, 0, 0, -0.646504, -0.491825, 0.27866, -0.0157783, 0.0115409, -0.00242064, 1, 0, 0.002, 0.04, 10, 1000, 4, 0.03
1, 1, 2.12577, 0.00012223, 1, 0, 0.171355, -0.0703541, -0.0922418, 0.875374, -0.423961, 0.20214, 0.114529, 0.0324983, 0.0275032, 0.0310729, 0.863796, -0.359631, 0.158935, 0.315058, -0.164329, 0.0081743, -0.295591, 0.868184, -0.434245, 0.210632, 0.11542, 0, 0, 0, 0, 0, 0, 0.0090015, 0.021755, -0.0203635, 0, 0, 0, -0.646504, -0.491825, 0.27866, -0.0157783, 0.0115409, -0.00242064, 1, 0, 0.002, 0.04, 10, 1000, 4, 0.03
1, 1, 2.12577, 0.00012223, 1, 0, 0.171401, -0.0702964, -0.0922897, 0.873687, -0.427944, 0.202602, 0.111749, 0.0324983, 0.0275032, 0.0310729, 0.863796, -0.359631, 0.158935, 0.315058, -0.164216, 0.00836002, -0.295785, 0.86537, -0.439738, 0.213241, 0.110876, 0, 0, 0, 0, 0, 0, 0.00903627, 0.0216155, -0.0202752, 0, 0, 0, -0.646504, -0.491825, 0.27866, -0.0157783, 0.0115409, -0.00242064, 1, 0, 0.002, 0.04, 10, 1000, 4, 0.03
1, 1, 2.12577, 0.00012223, 1, 0, 0.171444, -0.0702446, -0.0923484, 0.871742, -0.432259, 0.20326, 0.109101, 0.0324983, 0.0275032, 0.0310729, 0.863796, -0.359631, 0.158935, 0.315058, -0.16414, 0.00854746, -0.295967, 0.863922, -0.442456, 0.214583, 0.108742, 0, 0, 0, 0, 0, 0, 0.00681085, 0.0206738, -0.020795, 0, 0, 0, -0.646504, -0.491825, 0.27866, -0.0157783, 0.0115409, -0.00242064, 1, 0, 0.002, 0.04, 10, 1000, 4, 0.03
1, 1, 2.1683, 0.000141324, 1, 0, 0.17149, -0.0702095, -0.0924024, 0.86985, -0.436149, 0.204355, 0.10665, 0.0327985, 0.0277715, 0.0308813, 0.863292, -0.358627, 0.161697, 0.316177, -0.164093, 0.00866083, -0.29612, 0.86115, -0.447731, 0.216208, 0.105885, 0, 0, 0, 0, 0, 0, 0.00438312, 0.00828258, -0.011464, 0, 0, 0, -0.42772, -0.435728, 0.297186, -0.0168572, 0.0130762, -0.00108777, 1, 0, 0.002, 0.04, 10, 1000, 4, 0.03
1, 1, 2.1683, 0.000141324, 1, 0, 0.171543, -0.0701719, -0.0924495, 0.867727, -0.440428, 0.205737, 0.103659, 0.0327985, 0.0277715, 0.0308813, 0.863292, -0.358627, 0.161697, 0.316177, -0.164065, 0.00878262, -0.296269, 0.858279, -0.452564, 0.219195, 0.102452, 0, 0, 0, 0, 0, 0, 0.00295673, 0.0101611, -0.0125912, 0, 0, 0, -0.42772, -0.435728, 0.297186, -0.0168572, 0.0130762, -0.00108777, 1, 0, 0.002, 0.04, 10, 1000, 4, 0.03
1, 1, 2.1683, 0.000141324, 1, 0, 0.171606, -0.0701268, -0.0924978, 0.865232, -0.445398, 0.207384, 0.099934, 0.0327985, 0.0277715, 0.0308813, 0.863292, -0.358627, 0.161697, 0.316177, -0.164045, 0.0088688, -0.296369, 0.856815, -0.455233, 0.220472, 0.100111, 0, 0, 0, 0, 0, 0, 0.00188051, 0.00605959, -0.00770361, 0, 0, 0, -0.42772, -0.435728, 0.297186, -0.0168572, 0.0130762, -0.00108777, 1, 0, 0.002, 0.04, 10, 1000, 4, 0.03
1, 1, 2.1683, 0.000141324, 1, 0, 0.171648, -0.0701232, -0.0925449, 0.863259, -0.448847, 0.209159, 0.0978383, 0.0327985, 0.0277715, 0.0308813, 0.863292, -0.358627, 0.161697, 0.316177, -0.164026, 0.0089482, -0.296451, 0.855389, -0.457798, 0.221784, 0.0976859, 0, 0, 0, 0, 0, 0, 0.00195665, 0.0092626, -0.0109457, 0, 0, 0, -0.42772, -0.435728, 0.297186, -0.0168572, 0.0130762, -0.00108777, 1, 0, 0.002, 0.04, 10, 1000, 4, 0.03
1, 1, 2.21228, 0.000148124, 1, 0, 0.171685, -0.0701281, -0.0926056, 0.861393, -0.451879, 0.211203, 0.0959202, 0.0330368, 0.0280358, 0.0307602, 0.861673, -0.353064, 0.177678, 0.31827, -0.163998, 0.00901215, -0.296529, 0.853829, -0.459573, 0.224811, 0.0960687, 0, 0, 0, 0, 0, 0, 0.00265448, 0.00616898, -0.00732719, 0, 0, 0, -0.42772, -0.435728, 0.297186, -0.0168572, 0.0130762, -0.00108777, 1, 0, 0.002, 0.04, 10, 1000, 4, 0.03
1, 1, 2.21228, 0.000148124, 1, 0, 0.171715, -0.0701229, -0.0926618, 0.859725, -0.454711, 0.212824, 0.0939007, 0.0330368, 0.0280358, 0.0307602, 0.861673, -0.353064, 0.177678, 0.31827, -0.16396, 0.00906951, -0.296578, 0.850994, -0.464701, 0.226331, 0.0929306, 0, 0, 0, 0, 0, 0, 0.00441678, 0.00554795, -0.00502838, 0, 0, 0, -0.304766, -0.193194, 0.34619, -0.0180117, 0.0137124, 1.44275e-05, 1, 0, 0.002, 0.04, 10, 1000, 4, 0.03
1, 1, 2.21228, 0.000148124, 1, 0, 0.171747, -0.0701135, -0.0927229, 0.857784, -0.458078, 0.214496, 0.0914432, 0.0330368, 0.0280358, 0.0307602, 0.861673, -0.353064, 0.177678, 0.31827, -0.163904, 0.00912565, -0.296638, 0.849504, -0.466843, 0.227971, 0.0918132, 0, 0, 0, 0, 0, 0, 0.00659239, 0.00717313, -0.00682142, 0, 0, 0, -0.304766, -0.193194, 0.34619, -0.0180117, 0.0137124, 1.44275e-05, 1, 0, 0.002, 0.04, 10, 1000, 4, 0.03
1, 1, 2.21228, 0.000148124, 1, 0, 0.171769, -0.0701054, -0.0927886, 0.855867, -0.461411, 0.215882, 0.0893689, 0.0330368, 0.0280358, 0.0307602, 0.861673, -0.353064, 0.177678, 0.31827, -0.16384, 0.00917414, -0.296691, 0.847893, -0.468648, 0.230916, 0.0901379, 0, 0, 0, 0, 0, 0, 0.00873624, 0.00532636, -0.00508793, 0, 0, 0, -0.304766, -0.193194, 0.34619, -0.0180117, 0.0137124, 1.44275e-05, 1, 0, 0.002, 0.04, 10, 1000, 4, 0.03
1, 1, 2.25141, 5.40438e-05, 1, 0, 0.171783, -0.0701126, -0.0928447, 0.854184, -0.464144, 0.21725, 0.0879893, 0.0332904, 0.0281335, 0.0305802, 0.860824, -0.351582, 0.181718, 0.319922, -0.163747, 0.00922938, -0.296741, 0.844977, -0.473317, 0.232776, 0.0883191, 0, 0, 0, 0, 0, 0, 0.00871213, 0.00409013, -0.0042425, 0, 0, 0, -0.138068, -0.0780053, 0.309939, -0.0184557, 0.0145026, 0.000454896, 1, 0, 0.002, 0.04, 10, 1000, 4, 0.03
1, 1, 2.25141, 5.40438e-05, 1, 0, 0.171805, -0.0701165, -0.0929093, 0.852262, -0.467209, 0.21895, 0.0861688, 0.0332904, 0.0281335, 0.0305802, 0.860824, -0.351582, 0.181718, 0.319922, -0.163646, 0.00926969, -0.296776, 0.843327, -0.475146, 0.23566, 0.0866071, 0, 0, 0, 0, 0, 0, 0.0129916, 0.0041026, -0.00422602, 0, 0, 0, -0.138068, -0.0780053, 0.309939, -0.0184557, 0.0145026, 0.000454896, 1, 0, 0.002, 0.04, 10, 1000, 4, 0.03
1, 1, 2.25141, 5.40438e-05, 1, 0, 0.171834, -0.0701327, -0.0929609, 0.850372, -0.470045, 0.220844, 0.0845732, 0.0332904, 0.0281335, 0.0305802, 0.860824, -0.351582, 0.181718, 0.319922, -0.163499, 0.00930767, -0.296824, 0.84176, -0.477361, 0.23719, 0.0854805, 0, 0, 0, 0, 0, 0, 0.0259341, 0.00291209, -0.00383046, 0, 0, 0, -0.138068, -0.0780053, 0.309939, -0.0184557, 0.0145026, 0.000454896, 1, 0, 0.002, 0.04, 10, 1000, 4, 0.03
1, 1, 2.25141, 5.40438e-05, 1, 0, 0.171865, -0.0701702, -0.0930129, 0.848481, -0.472442, 0.223395, 0.0835062, 0.0332904, 0.0281335, 0.0305802, 0.860824, -0.351582, 0.181718, 0.319922, -0.163334, 0.00933815, -0.296853, 0.840038, -0.479297, 0.239975, 0.0838009, 0, 0, 0, 0, 0, 0, 0.0130325, 0.00287983, -0.0030217, 0, 0, 0, -0.138068, -0.0780053, 0.309939, -0.0184557, 0.0145026, 0.000454896, 1, 0, 0.002, 0.04, 10, 1000, 4, 0.03
1, 1, 2.28757, 6.23926e-06, 1, 0, 0.171895, -0.0702092, -0.0930615, 0.846733, -0.474552, 0.225906, 0.0825293, 0.0334351, 0.0281557, 0.030475, 0.861384, -0.35271, 0.178376, 0.319055, -0.16315, 0.00936784, -0.296883, 0.838301, -0.481673, 0.242324, 0.0807616, 0, 0, 0, 0, 0, 0, 0.0261816, 0.00251769, -0.00326053, 0, 0, 0, -0.155577, 0.0267162, 0.384707, -0.0182783, 0.0158184, 0.000658104, 1, 0, 0.002, 0.04, 10, 1000, 4, 0.03
1, 1, 2.28757, 6.23926e-06, 1, 0, 0.171931, -0.0702379, -0.0931124, 0.844655, -0.477308, 0.228432, 0.0809519, 0.0334351, 0.0281557, 0.030475, 0.861384, -0.35271, 0.178376, 0.319055, -0.162911, 0.00941032, -0.296917, 0.836703, -0.483892, 0.243799, 0.0796137, 0, 0, 0, 0, 0, 0, 0.0244998, 0.00374059, -0.00275228, 0, 0, 0, -0.155577, 0.0267162, 0.384707, -0.0182783, 0.0158184, 0.000658104, 1, 0, 0.002, 0.04, 10, 1000, 4, 0.03
1, 1, 2.28757, 6.23926e-06, 1, 0, 0.17197, -0.0702327, -0.0931657, 0.842513, -0.480518, 0.230542, 0.0782563, 0.0334351, 0.0281557, 0.030475, 0.861384, -0.35271, 0.178376, 0.319055, -0.162672, 0.00946101, -0.296936, 0.833515, -0.488261, 0.246777, 0.0771643, 0, 0, 0, 0, 0, 0, 0.0236136, 0.00437418, -0.00232233, 0, 0, 0, -0.155577, 0.0267162, 0.384707, -0.0182783, 0.0158184, 0.000658104, 1, 0, 0.002, 0.04, 10, 1000, 4, 0.03
